pswiac/ann_ik/train/data/model_predictions.csv
Joint_0,Joint_1,Joint_2,Joint_3,Joint_4,Joint_5,Joint_6,Joint_7
0.0023468211,0.13083793,-0.43136877,-0.008408425,-0.76579475,1.2705151,0.0033848062,-0.0056510586
0.0034565702,1.104201,-0.5273932,-0.014801202,-0.75193644,1.3060681,0.015990093,0.00068563037
0.0034593418,0.56680495,-0.3153195,-0.031629797,-0.74380827,1.2628278,0.0071017593,0.004657684
0.0009835884,0.15480155,-1.4650621,-0.016967086,-0.8856423,1.3412267,-0.005660396,0.00084724836
-0.004171066,-0.17229904,-0.85214746,0.0026993179,-0.82419086,1.3360192,0.0010108277,-0.005698325
0.0050763264,0.9150225,0.0061758757,0.007934691,-0.8333032,1.30528,0.003202822,-2.1459535e-05
0.0010610297,0.6309204,-0.84676695,-0.012100397,-0.80588067,1.323567,0.004192088,0.0027445536
0.0013430044,0.60087043,-0.98684216,0.0107025225,-0.376164,1.1596278,0.0023272708,0.0068580117
0.0043051317,0.8388969,-0.20384881,-0.02755904,-0.78672206,1.2926668,0.009923317,0.0036163907
0.003880091,0.3638879,-0.11158654,-0.010714291,-0.73619056,1.2401007,0.005559325,-0.0038648862
0.0026818588,0.28170657,-0.6520419,-0.0181154,-0.76131773,1.2500755,0.002810821,0.0026546102
0.006446846,0.77938193,-0.93001235,-0.0026538945,-0.7669482,1.2695994,0.011451151,-0.008427443
0.0010403469,0.36094773,-0.64697695,-0.008592008,-0.7544198,1.2605242,0.00396955,0.0008846801
0.002611585,-0.18679436,-0.97634315,0.032257203,-0.769418,1.3494025,-0.0023894832,-0.0011440534
0.0033016875,0.66570896,-0.6701994,-0.01444733,-0.7966441,1.3051902,0.0059304684,-0.000558855
0.0012733415,0.19539088,-0.6101312,-0.006239412,-0.77303815,1.2599882,0.002751574,6.565265e-05
0.012855701,1.0987269,-0.37592173,-0.054553565,4.3456345,-1.5368913,0.007664863,0.002673639
0.0022722706,1.0495033,-0.07919389,0.020369293,-0.7340789,1.1208057,0.005478747,-0.007709669
0.0048441365,0.4993739,-0.55044603,-0.024248956,-0.73931956,1.2526604,0.005448684,0.005229829
-0.00015615672,1.0283335,-0.6768769,-0.024820564,-0.8413769,1.3161637,0.00781595,-0.0027514715
0.00071746856,0.43600404,0.08244702,-0.025812982,-0.7157215,1.2377602,0.009301722,0.00261694
0.0036392584,1.0110368,-0.06956893,0.013947191,-0.7402673,1.2026299,0.0028046817,-0.00040883012
0.001598604,0.6515811,-0.24196965,-0.011884807,-0.80590844,1.304954,0.0060868897,0.0017625671
-0.0024487898,0.11121487,-0.984272,-0.0075358725,-0.8282616,1.3423339,0.00413429,0.0026058536
-0.002062671,-0.20075543,-0.75579476,-0.0027503944,-0.8286123,1.2897172,0.000111967325,-0.0044532437
-0.004420001,0.61729956,-1.1311562,-0.0069485283,-0.7126626,1.2699032,-0.009774599,0.0047574174
-0.0008231476,0.2838325,-1.1465453,0.012304755,-0.5223998,1.1990585,0.0017988011,-0.00018516369
0.002503164,-0.03490652,-0.5000104,-0.015076874,-0.77948904,1.2810436,0.004774511,-0.003300609
-0.0026161894,-0.05290228,-0.81357026,-0.0020755506,-0.804157,1.3166369,0.0023922548,-0.004856022
0.0022220388,0.14143682,-0.4094297,-0.008059321,-0.7987611,1.2925268,0.0036143959,-0.004992934
0.004367329,0.7342716,-0.10205889,-0.016211865,-0.8234755,1.2989831,0.0062516257,0.002423374
0.0042828545,1.4185671,-0.07945311,-0.02773106,-0.62580454,1.238293,0.013462119,-0.015852006
-0.0046290085,0.9182603,-0.638216,-0.028402565,-0.8690946,1.315883,0.0077295154,-0.0045942087
0.002900608,1.2475092,-0.5225124,-0.033910807,-0.82781816,1.338307,0.00047224388,0.002147613
-0.0005059764,1.2993451,-0.39542645,-0.03876477,-0.9450042,1.3629093,-0.004504733,-0.004224004
0.0061013773,0.7661485,0.025231153,-0.022769092,-0.74668634,1.2600154,0.0043340623,0.0023297053
0.0022561625,0.6335501,-0.46468177,-0.012230394,-0.766747,1.2816148,0.0065787956,0.0013681632
0.0013340786,0.32111192,-0.5283924,-0.0017825342,-0.75496197,1.2635932,0.0037258118,0.0006588679
0.0007471517,0.3115513,-0.5015475,0.00012690062,-0.7587929,1.2894529,0.0030248612,-0.0028584022
0.0010588244,1.011467,-0.35174853,0.019510867,-0.6532886,1.1985474,0.0029093996,-0.00038862415
0.0010477379,0.8953362,-0.45023203,-0.0075245476,-0.7927271,1.3290117,0.0036191419,0.00092914514
0.0005215481,0.84780425,-0.34066418,-0.01768112,-0.7944344,1.314114,0.002580598,0.0026276987
4.0449202e-05,0.98447365,-0.7066846,-0.0062726117,-0.7147809,1.3064636,0.007126387,-0.0049415547
0.00830131,0.8145084,-0.73469245,-0.049815055,3.8316383,-1.3402703,0.0043882355,-0.002516793
-0.00067245215,0.10384514,-0.7207378,-0.0036286688,-0.7831075,1.2953657,0.0035924986,-0.002820285
0.006827496,-0.12128009,-0.70528656,-0.049885523,0.83819187,0.38379422,-0.0037642457,0.0079333205
-0.0017961189,0.17845917,-1.2481678,-0.024302064,-0.7704514,1.2855736,0.0064435154,0.0020549577
0.003894575,0.03605263,-0.52022886,-0.0076608635,-0.757419,1.2693276,0.004883066,-0.0043584723
0.00063396245,0.45457375,-0.63224447,0.00036716694,-0.7571223,1.289259,0.0045404807,0.0003885012
0.0004924014,0.039922938,-0.7298415,-0.012874125,-0.7950598,1.2618703,0.0008458197,-0.000586899
-0.0026122555,1.1375778,-1.2108525,-0.01703292,-0.96921086,1.3944176,0.0037189946,-0.005692618
-0.0007763952,0.58899695,-0.63890374,-0.019516854,-0.58393705,1.1667342,0.010199301,0.0065624844
0.0040877536,0.9604206,0.053832084,-0.0029747463,-0.78601086,1.2761188,0.0045259595,0.00208023
0.0038880631,1.1965458,-0.74110746,-0.008402286,-0.9172989,1.369433,-0.00019678846,0.00022184663
0.0006324053,1.1583698,-0.15656666,-0.0019618548,-0.6420809,1.060505,0.002400387,-0.004295556
0.004821755,1.180152,-0.7355238,-0.019650279,-0.84820557,1.3589764,0.0014776438,0.0020799022
-0.0009229854,0.86157185,-0.52956223,-0.004939792,-0.716184,1.27927,0.001014825,0.0025891047
0.001811631,0.3705942,-0.42282504,0.0009675049,-0.7367753,1.2640055,0.00536035,-0.0015382189
-0.001889877,0.14029625,-1.0002472,-0.007690606,-0.8077228,1.3359679,0.0042464733,0.0042727273
0.0013389066,-0.21588187,-0.51338494,-0.028345821,-0.81172836,1.3032825,0.00584729,-0.00027734227
0.0019947365,1.1031806,-0.44352657,0.023944648,-0.47069654,1.0801739,0.0014685877,-3.3713877e-07
-0.0013831183,-0.16691928,-0.75347435,-0.0040381528,-0.8129728,1.326753,0.0035079867,-0.0046928246
0.0009659305,0.99904364,-0.13827357,0.0067568445,-0.8384627,1.3056939,0.0039492883,0.0074196737
0.0010942891,0.8558715,-0.58477783,-0.006300268,-0.79118454,1.3359789,0.0037720427,-0.00071823783
0.0040119365,0.5444534,-0.5443592,-0.01948869,-0.7581043,1.2649716,0.007924423,0.00054961257
0.0036767796,0.49650216,-0.6101785,-0.028782485,-0.7651979,1.2633072,0.008793995,0.0034440141
-0.0017189607,1.2146761,-0.103486896,-0.0127162915,-0.6216711,1.1316874,0.0057951994,-0.000115917996
0.0058392063,1.1669406,-0.33926514,0.015621783,-0.48286977,1.031276,0.0037648268,0.0024504643
0.003428705,0.73137856,-0.24958906,-0.027680991,-0.79096115,1.2944824,0.010600261,0.0036966782
0.0032708123,0.8414691,-0.2615224,-0.007416365,-0.72151136,1.1930549,0.010324374,0.0006066393
0.0033747703,1.2855709,-0.49281672,-0.020826517,-0.8389182,1.304825,0.002452936,0.00030204467
-0.0020759627,0.94258046,-0.61165154,-0.016466258,-0.84185755,1.333121,0.0067131855,-0.007195415
0.0026424602,0.09454517,-0.3773295,-0.010410843,-0.7534833,1.2624859,0.0040398687,-0.0044060964
0.014674909,1.1026553,-0.20532936,0.004751178,4.021754,-1.4805129,0.008319594,0.0029290374
0.0059501603,0.5906384,-0.5956129,-0.020351766,-0.7615814,1.2573503,0.008771211,-0.0020990986
0.0025151446,0.90955675,-0.20137486,-0.014639495,-0.78664565,1.2915183,0.0058854967,0.0024766605
0.00499285,-0.110397026,-0.6281409,-0.007238624,-0.80465734,1.2810733,0.0072678626,-0.0020979661
0.006196387,0.008082882,-0.5540391,-0.017932652,-0.78521276,1.266367,0.007348165,-0.0008887071
-0.0028334782,0.1746743,-0.92911184,-0.01109433,-0.84795046,1.3430659,0.0047487095,0.00064059906
0.0007306114,0.9438113,-0.61094654,-0.007398901,-0.7771894,1.334487,0.004352458,-0.00668961
-0.0016553625,0.6144517,-0.7657542,0.005132141,-0.7894839,1.3496224,0.003256131,0.0011539143
0.0020420924,0.47209477,-1.4650235,-0.016331492,-0.8972088,1.3268915,-0.010485556,-0.0037591178
0.0050796494,1.368372,-0.03095594,-0.06562799,-1.0573981,1.4793147,0.0064564347,0.0015331116
0.002063997,0.98371655,-0.39516747,-0.009985564,-0.7886051,1.3139809,0.0060559176,0.0025657695
-0.0037192032,-0.0389605,-0.9774668,-0.009304939,-0.83314,1.3470798,-0.0006370172,-0.0005792398
0.0057901815,0.60853106,-0.31158718,-0.047464486,-0.7421162,1.2569517,0.006633699,0.0060782414
-0.0010007396,0.81785035,-0.58167386,-0.0035756207,-0.6725216,1.247085,0.0028286353,0.0028421562
0.006641455,0.7149534,-0.41924945,-0.036259647,-0.7622566,1.2628833,0.0077234805,0.001243053
0.0021891072,0.66197324,-0.6083391,-0.00863695,-0.7758665,1.3005999,0.005933784,-0.00049004145
0.0062518194,0.52786344,-0.010191351,-0.02279651,-0.79815316,1.2774805,0.0046585724,0.0073163193
-0.0024756119,-0.16863601,-0.7920735,-0.00030392176,-0.8205247,1.3138198,0.0018365309,-0.005424263
-0.0010633394,0.7441265,-0.5359832,-0.008862494,-0.7908031,1.3304149,0.0017408654,0.0021075439
0.00082642585,-0.002262041,-0.34546486,-0.0079328995,-0.7884948,1.2868478,0.0052364245,-0.0036633033
0.0027350858,-0.07929759,-0.6947059,-0.021632789,-0.8091806,1.2557677,0.0011075139,0.00059443526
0.0019885972,0.07160868,-0.5978985,-0.003703711,-0.7743244,1.2815531,0.0055900887,-0.0041065533
0.00053571165,0.30817145,-0.6169861,-0.06816307,-0.3937512,0.9576551,-0.0027942955,0.003685033
1.8753111e-05,0.9722573,-0.37185532,0.009021046,-0.7660742,1.3012588,0.00034428388,0.0014540385
0.00061211735,0.005355537,-0.29241467,-0.0033935285,-0.79173875,1.2840118,0.0058312006,-0.0040045697
-0.00086369365,1.1337701,-0.11584778,0.004205289,-0.62800527,1.1216729,0.0018371865,0.0032511782
0.0014690235,0.03210108,-0.07453591,0.0063963556,-0.8133074,1.2837892,0.0078895725,-0.00246224
-0.0015518293,1.0492777,-0.6371678,-0.008359788,-0.75415707,1.3173057,0.008575141,-0.0055362005
0.0035554245,0.9208047,-0.02622667,0.012431266,-0.81303453,1.2976168,0.0044244044,-0.0018113274
0.0011213198,0.94105285,-0.42004818,-0.00844389,-0.79336965,1.3291146,0.0028052665,0.0010626893
2.8319657e-05,0.27199292,-0.98837507,-0.010753749,-0.78844714,1.3224765,0.0041317157,0.007338045
0.0030466989,0.24964304,-0.09612557,-0.00096595054,-0.7649505,1.2535676,0.006248407,-0.00514126
0.004950173,0.90433216,0.03518021,0.006058159,-0.83247447,1.3043481,0.003169179,-0.0013272185
0.00063020736,0.50216675,-0.47112763,-0.0033799387,-0.758003,1.2916111,0.005900681,0.003080843
0.002015002,0.6141175,-0.30107337,-0.014222143,-0.7627895,1.2854327,0.0064082295,0.0035701375
0.00037068874,0.138135,-0.7133037,-0.009254573,-0.7815769,1.2681861,0.0021238625,-0.0005945582
0.0027605668,0.31586647,-0.49391612,-0.010275958,-0.82123923,1.3260645,0.0012063906,-0.0013176817
0.003635712,1.2736418,-0.62717956,-0.03540879,-0.86865175,1.3700444,0.004585296,0.003969876
-0.0013752505,0.45611715,-0.77092326,-0.0153267365,-0.8068845,1.3109959,0.006006263,0.0015307348
0.0021542981,0.11977635,-0.090510875,-0.002289412,-0.77003074,1.2604363,0.0070895925,-0.003520282
-0.0023354813,0.11281258,-0.8124932,-0.008420525,-0.7979965,1.2905447,0.0014299005,-0.0020323116
0.0022569373,0.9789043,0.02384913,-0.011012552,-0.80587745,1.292972,0.006173387,0.004592864
0.00010574609,0.4248014,-0.6646558,0.0017132186,-0.76565266,1.2998408,0.004388705,-0.00039407797
0.004117973,0.5910307,-0.18401605,-0.021906553,-0.7896563,1.2440954,0.0077519715,0.0055019837
0.003804274,0.47777414,-0.48055908,-0.012640236,-0.7282653,1.2563379,0.0038142651,0.004895089
-0.0043094084,-0.16028358,-0.926929,0.0028593563,-0.8519547,1.3429732,-0.0036224946,0.000552861
-0.0008639321,1.1029339,-0.20259628,-0.010749159,-0.7944157,1.2588733,-0.00051869825,0.008347793
0.00090856105,0.61843246,-0.5924977,-0.005781827,-0.77348256,1.3035823,0.005590275,0.00070059113
-0.0020620003,0.024266645,-0.9117037,0.003722819,-0.6539364,1.2797611,0.0024503618,-0.005018251
0.00012651831,-0.009292543,-0.15966976,0.0046138787,-0.7962396,1.2776357,0.0074432045,-0.0039536674
-0.00051593035,0.67905235,-0.5097295,-0.01212102,-0.7959095,1.3262668,0.004762303,0.0020456295
0.0042959824,1.3091943,-0.7995583,-0.021143077,-0.9054972,1.3770045,0.008396931,-0.0013307352
-0.0004760027,0.18498969,-1.0523602,0.005647423,-0.46441922,1.1873689,0.0056092218,0.0006244164
0.0035080388,0.7289539,-0.39738503,-0.020026444,-0.76975274,1.2816852,0.0063986853,0.0016645174
0.0040329173,0.31523263,-0.22431812,-0.0022932268,-0.7567122,1.2523729,0.004490912,-0.006226184
0.0054761246,0.81054544,-0.41528705,-0.022354124,-0.77485347,1.2765634,0.0069731474,-0.0005970616
0.0031837896,0.6535864,-0.42793366,-0.020481942,-0.76442754,1.2778984,0.0066704676,0.0021904092
0.014053874,0.17422949,-1.2647562,-0.21400693,3.845983,-1.4350523,0.010687899,0.0024150964
0.0015318468,0.71568274,-0.6794708,-0.00949621,-0.79613066,1.3264636,0.0046826154,-0.0004327614
0.003514178,0.086835966,-0.1787763,-0.015462397,-0.74097383,1.2535499,0.0058707595,-0.0018159766
0.0019047931,1.0932529,-0.74184465,-0.02281314,-0.82611513,1.3531848,-0.00010789931,-0.002527209
-0.0020510182,1.2908065,-0.4145522,-0.04185545,-0.93381965,1.3696305,-0.005941808,-0.0017997641
0.0019213632,-0.08923422,-0.52780056,-0.020124672,-0.754092,1.2826977,0.0036683008,-0.0015130658
0.0040488318,0.776256,-0.10166985,-0.019175408,-0.79796755,1.2927818,0.00799771,0.0019261222
0.0077483132,0.64247787,-0.5683881,-0.029780148,-0.7611643,1.2510489,0.009138644,-0.0022421498
0.0024167374,0.91273344,-0.18742484,0.014142754,-0.8344073,1.323244,0.0041851923,0.0006292593
-0.0046957657,0.91974944,-0.66523814,-0.027456997,-0.87447286,1.3079244,0.0077026635,-0.003889205
0.0025345162,1.0380554,-0.74040926,-0.016534327,-0.82886636,1.332533,0.005148627,-0.0078434665
0.0007075742,0.5273339,-0.51565313,-0.004470346,-0.7617688,1.2898244,0.0057972968,0.0022123735
-0.003406696,0.061475888,-0.8149656,-0.010502933,-0.82122934,1.2958677,-0.0007721111,-0.0008587558
0.0029118732,0.15619688,-0.16061333,-0.00650203,-0.75762904,1.2559838,0.005995229,-0.0038033146
0.0065282956,0.69394994,0.010997325,-0.019118784,-0.78497195,1.2708987,0.0026970357,0.0033723693
-0.0029836819,0.14697385,-0.92149425,-0.014636038,-0.86458063,1.3442029,0.004116103,0.0014962237
0.0072628334,0.68291867,0.076057345,-0.029324053,-0.7059945,1.2340808,0.0068473667,0.0027953964
-0.0004252419,0.52767384,-0.68902266,-0.00050002104,-0.78286016,1.3230703,0.0055277124,0.00029143505
0.0037299767,0.292868,-0.01265499,-0.002283988,-0.8216126,1.2877269,0.0032642037,0.0020941775
0.0022255853,0.5941195,-0.69990194,-0.0089672785,-0.7904228,1.3053392,0.005768694,6.711297e-05
0.006614633,0.5476214,-0.55378485,-0.0328654,-0.75290346,1.250461,0.008933306,0.00018721633
0.005190082,0.5135563,-0.64033824,-0.01924312,-0.7662444,1.261743,0.009276316,-0.0004494805
0.004311867,-0.13040523,-0.61690533,-0.0091751795,-0.80876946,1.2910293,0.007802725,-0.0022866149
0.0077701285,0.57718986,0.06792471,-0.029557941,-0.7216208,1.2333213,0.00790675,0.0036318284
-0.0012314692,1.2210735,-0.13234533,-0.010450957,-0.6012919,1.0995694,0.0028189085,0.0008720141
0.0018558279,1.0829979,-0.24708214,-0.019444047,-0.841378,1.3151981,0.00551096,0.0111076515
0.0021832064,0.8742103,-0.4940239,-0.009771107,-0.790594,1.3205196,0.0043698326,-0.00018516369
0.0041408613,0.78034997,-0.07920459,-0.023573516,-0.77765834,1.281367,0.008188061,0.0023931246
0.0013439134,0.31583524,-1.071532,-0.00037574535,-0.61317,1.2727486,0.0032798573,0.0019469243
0.0044039562,0.5439713,-0.48846555,-0.026872275,-0.74789476,1.2597237,0.0070484877,0.002555905
0.005652696,1.0504781,-0.18632749,0.07913622,2.8498778,-1.0032369,0.004087899,-0.0024555866
0.0014318898,0.12440297,-0.31079778,0.0006448054,-0.7836504,1.273186,0.0049339607,-0.006032737
-4.4696033e-05,1.2023305,-0.71533144,-0.030790744,-0.8812065,1.3973702,0.0015242323,0.003415702
0.0028218701,-0.00097079575,0.010980517,-0.0105302315,-0.7627045,1.2653735,0.008123741,-0.000525238
9.460002e-05,-0.06756599,-0.72382545,-0.012545345,-0.8108494,1.2639351,0.0002284497,-0.001475336
0.0059813038,0.7198629,-1.0420139,-0.008105515,-0.68855524,1.2545298,0.010519985,-0.0030494947
0.002672322,0.8579058,-0.13616124,-0.015937505,-0.78631973,1.2891048,0.0073406883,0.0015264731
0.0057500675,0.7382363,-0.49880028,-0.019334553,-0.77170074,1.2695454,0.00773485,-0.0018991847
0.0023796037,0.21887252,-0.23037586,0.004801812,-0.78819084,1.2687347,0.0051704273,-0.0064350683
0.006708987,0.81757534,-0.9696218,-0.0123004895,-0.69825506,1.2741781,0.009298071,-0.0013364572
0.0022356585,0.046008997,-0.605859,-0.0050069666,-0.7626612,1.2827471,0.0042101294,-0.004502358
0.0036236122,0.30292416,-0.6569202,-0.02593398,-0.76250684,1.2473116,0.0034080297,0.0038002115
-0.0008402392,-0.08593573,-0.7769755,-0.0013738251,-0.80586696,1.3162866,0.0041543692,-0.004739614
0.0064037293,-0.2621585,-1.2232765,0.038514856,3.2152233,-0.7666707,0.008186474,0.005829336
0.00032595545,1.2479413,-0.8052616,-0.0021818853,-0.9638878,1.3836008,0.0013617985,-0.0023574699
0.0066084936,0.56938165,-0.085330874,-0.020139633,-0.82357717,1.2914478,0.006918974,0.006125508
0.0015104488,0.075784005,-0.6393056,-0.01282656,-0.77727926,1.3050303,0.0019655786,-0.0032777954
0.004762806,0.4484291,-1.0244825,-0.0036516166,-0.62633777,1.2665836,0.0057835616,0.0037475359
0.0050717816,1.149549,-0.5132545,-0.0024840212,-0.6529734,1.2496758,0.012000058,-0.0020539928
0.0026766136,0.93301016,-0.3656365,-0.012864349,-0.78960896,1.3114953,0.0045279413,0.0006269496
-0.001075767,0.5931566,-0.7520417,0.0008952045,-0.790629,1.3369607,0.0038523749,0.0010417979
-0.0010471866,0.7029467,-0.72623014,-0.0011348105,-0.79806304,1.3506109,0.0031412542,0.00056758337
0.0042196587,0.94457793,-0.031014115,0.012321295,-0.8071506,1.295051,0.0036756583,0.0005256217
0.0033072308,0.24070607,-0.06836364,-0.003124354,-0.75984716,1.251146,0.0065087676,-0.004444124
-5.6557357e-05,0.6847185,-0.80767334,-0.019201754,-0.8226335,1.3185703,0.004059065,-8.9736655e-05
-0.00019892305,0.8217063,-0.7442092,-0.00046774512,-0.4700881,1.193007,0.0032348223,0.0026432928
0.003013976,0.36361396,-0.4268982,-0.007920025,-0.7477704,1.2648909,0.0067643523,0.00017261319
0.0035628602,0.9740017,-0.85327184,-0.0248484,-0.7709445,1.3340638,-0.0015711002,0.0040950906
-0.001079984,0.6774763,-1.0206134,-0.011517702,-0.6931467,1.3195711,-0.00012728944,0.0043207016
0.00012332946,-0.09602557,-0.74977565,-0.002195058,-0.80719125,1.3077766,0.0044370443,-0.0042479653
0.0029342845,0.1605209,-0.11215499,-0.0059679723,-0.7583277,1.2548051,0.0064821243,-0.0035123248
0.0035757497,0.2718299,-0.08359346,-0.0033059097,-0.8027184,1.2756613,0.006346114,-0.0009076018
0.003719695,0.9355455,-0.06795511,-0.005880711,-0.785203,1.282534,0.0067548975,0.0014184993
0.006831385,0.92598295,-0.78944826,-0.037253033,3.495483,-1.1988021,0.0017569587,0.00018707477
-0.0011575148,0.26813877,-0.95175076,-0.010339914,-0.8075241,1.3315233,0.0050045997,0.004012583
0.003608115,0.16497748,0.021123976,-0.0069676614,-0.758587,1.2550821,0.007448435,-0.0025826711
0.0029861853,-0.21848382,-1.139593,0.031347636,3.5765812,-0.9791486,0.008979738,0.001109438
0.0006230846,0.9172176,-0.42526674,-0.008082984,-0.7873713,1.3237083,0.0014672652,0.00156161
-0.00016223639,0.21419254,-0.18150729,0.0032311403,-0.8738828,1.3177303,0.004166048,0.0021353345
0.0040910915,0.8725244,-0.15100548,-0.023552416,-0.78386855,1.2840539,0.009267151,0.0037481468
-0.0035571381,1.0612781,-0.59627104,-0.029370425,-0.8294846,1.3004669,0.012382645,-0.00014317222
-0.0037999675,-0.2537766,-0.78501284,-0.00693166,-0.8526571,1.2949759,-0.0037129372,-0.0024194736
0.0022309795,-0.15105845,-1.013485,0.009559156,-0.8113316,1.353767,-0.00023143739,0.0018370729
-0.0025302842,1.1382756,-0.019170985,-0.023118136,-0.7417458,1.2666594,0.011212334,0.0003972333
-0.00096731633,0.12798843,-0.180399,-0.0017280257,-0.80032146,1.2541026,0.006876081,0.0005079787
0.004886456,1.3604233,-0.55127347,-0.0438019,-0.97277856,1.3933913,0.0046164133,0.00023484044
0.002083607,1.0319715,-0.20338175,0.010005476,-0.8117622,1.3047093,0.007923905,0.0042142253
0.0025184825,-0.17030884,-0.16101906,-0.020050524,-0.75273526,1.2739359,0.00701344,0.0012072902
0.006532587,0.37639004,-0.2411677,-0.018778143,-0.84816074,1.3162566,0.0042832643,0.00451882
0.0055667236,0.68972296,-0.041551918,-0.02614498,-0.7423743,1.2616692,0.0068385676,0.003985105
0.0034491494,0.22220406,-0.020639867,0.0017879629,-0.81822515,1.2843676,0.0052486993,-1.794286e-05
0.004619248,0.7622622,-0.38302317,-0.02544224,-0.76977897,1.2778805,0.0066346154,0.0014672857
0.003758736,0.79945874,-0.105609775,-0.019631801,-0.7921417,1.2923532,0.0085124895,0.0015232842
0.0005062893,0.5537523,-0.3529103,-0.014699278,-0.79999006,1.314109,0.0039084107,0.0027392488
0.0064142346,0.7844754,-0.67298913,-0.08285314,3.77137,-1.2705139,0.0017456897,-0.0018281098
0.004262693,0.3725258,-0.50746167,-0.019010423,-0.7430972,1.2518775,0.0031411052,0.0051168185
0.0053398088,0.56454766,-0.48215947,-0.033199783,-0.7532846,1.2590286,0.008031964,0.0022234898
-0.0012258217,0.78967667,-0.6990043,-0.013259528,-0.8224251,1.3445355,0.0038970783,-0.0034722406
0.00093604624,0.58678484,-1.020033,0.0116655845,-0.4561048,1.1976017,0.002822563,0.0039430913
0.0037136748,-0.15765779,-1.0207156,0.018647196,-0.76769257,1.34751,-0.0028866194,0.0018399935
0.0063297227,0.69576526,-0.5867954,-0.021299599,-0.7822286,1.2713257,0.007921085,-0.0022643227
0.002751477,0.028193101,-0.053150386,-0.011942206,-0.7531084,1.2576708,0.0076206923,-0.00073272176
0.0017084554,0.68809974,0.060364097,-0.022137402,-0.6671295,1.2376943,0.013775408,0.0009834152
0.00077762455,0.59174234,-1.4522477,-0.020152865,-0.9200088,1.335353,-0.003916621,-0.008143084
0.0049135312,1.1204046,-0.38581327,0.009180667,-0.6514826,1.2055528,0.004360914,0.0042645615
-1.8410385e-05,0.6207358,-0.68332267,-0.00199574,-0.7792928,1.3216294,0.0047326423,0.00030562095
0.003290899,0.48997903,-0.2740037,-0.015852867,-0.81240904,1.3064713,0.0043059587,0.0042330604
0.0041028038,0.69043463,-0.9447279,-0.011975942,-0.59727836,1.2497712,0.007825308,0.00016560964
0.0044385865,0.93730646,-0.4530873,-0.015928028,-0.790571,1.3059567,0.005302511,-0.0014767963
0.004963346,1.0498226,-0.8170397,-0.012157021,-0.82057047,1.3404489,-0.0027029514,-0.0064454097
0.0047672465,0.3855459,-0.074750304,-0.013987837,-0.8140143,1.283707,0.005848352,0.003762154
-0.00028868765,1.0242774,-0.1214931,-0.008256314,-0.8592472,1.3095294,0.004880175,0.011403827
0.004985787,0.8867518,0.02644296,0.02245015,-0.79299355,1.2059982,0.004184339,-0.0069452245
0.002010651,0.58790815,-0.88723946,-0.007316408,-0.7928597,1.3243089,0.0044820234,0.0047825556
-0.002708368,0.10652304,-0.98014927,-0.0025773025,-0.8220955,1.34313,0.0036285892,0.0010802131
0.009228684,0.495885,-1.3048595,-0.009187175,4.5182743,-1.5085444,-0.0026740283,0.011458678
-0.0018095896,-0.019738257,-0.8091289,-0.0019717193,-0.79568183,1.3217742,0.0036700964,-0.0047760624
-0.0006412789,0.9749382,-1.0931628,-0.017069576,-0.909366,1.3760382,0.009927016,-0.0055490155
0.007527612,-0.05199288,-0.82940114,0.95506144,-0.65671027,-2.1695912,-0.0050868466,-0.012047173
0.0047907904,-0.02970405,-0.503336,-0.021097062,-0.7765193,1.2775476,0.0063900054,-0.0020492692
0.002333887,0.3654154,-0.35623798,-0.00093161827,-0.7459732,1.2642746,0.004588023,-0.0034519453
0.004823275,0.6205092,-0.16155669,-0.028943656,-0.7132647,1.2427051,0.010074079,0.0038689952
0.001684852,0.25162375,0.018373877,-0.0086745005,-0.7513392,1.2455711,0.007817529,-0.0024425406
-0.0017490312,0.34497485,-0.8699347,0.0017842078,-0.8065994,1.3400332,0.004104998,-0.0012915153
0.0031347647,1.1212946,-0.52730525,-0.023840306,-0.76752913,1.3067087,0.018821657,0.0017221253
0.00013215095,1.104283,-0.842049,-0.007965742,-0.82603455,1.350047,-0.0018261969,-0.004545333
0.004092701,0.7291567,-0.18100926,-0.024753807,-0.7627915,1.2764429,0.009252027,0.0041283946
0.012557156,1.3322599,-0.44304556,0.083636895,3.4275818,-1.1769583,0.0029952377,0.0064813253
0.0036261752,0.3811652,0.014491618,-0.019006668,-0.78363705,1.265888,0.00672815,0.0038102549
0.00089067966,-0.10659777,-0.20576862,-0.0085511785,-0.77009296,1.272267,0.0071592033,-0.0011146683
0.003725402,0.11083712,-0.98057353,0.05682954,1.508541,-1.6093434,0.00877602,0.00017235987
0.003161557,0.9114017,-1.2500496,-0.01869136,-0.93324983,1.3726379,0.0046546757,0.00023381226
0.0036953166,0.35419685,-0.39292386,-0.013467668,-0.7359507,1.2572218,0.0060287267,-0.0005522389
0.0062730983,0.46927536,-0.15824154,-0.019959448,-0.839962,1.3052324,0.005941592,0.0060423296
-0.0017396286,0.4190801,-0.33568504,-0.010200469,-0.76283026,1.1442617,0.0053651743,0.0025657471
0.005437143,0.82295936,-0.0077845156,-0.027787684,-0.74864817,1.2625686,0.0076682195,0.0027432423
0.0010609701,0.5406726,-0.4070859,-0.009736417,-0.75881267,1.2919528,0.00526727,0.0036792438
0.0042053536,0.35989147,-0.21844563,-0.0038505173,-0.7831298,1.2706255,0.0046686754,-0.0021529812
0.00043762475,0.72116697,-0.33994392,-0.020552812,-0.82401,1.3268093,0.006712895,0.0019606035
0.0019213632,-0.0054432154,-0.7297063,-0.028451202,-0.8005241,1.2501296,-0.00031408668,0.001470862
0.0020107627,0.9476065,-0.1318535,0.032208208,-0.75308645,1.1410718,0.005870778,-0.0064568315
-0.00066746026,0.7913,-0.8425913,0.014038296,-0.17078865,1.0042397,0.0032433942,0.004204957
-0.0031424388,0.057191305,-0.83008504,-0.00335562,-0.792892,1.3087622,0.0024903864,-0.004622342
0.011288248,0.7315124,-1.0143915,-0.026828034,4.4668427,-1.5753573,-0.008947153,0.0069855507
0.0046558753,1.1558876,-0.5819651,0.021565946,1.9906458,-0.2630351,0.004131131,0.00032631122
-0.02049901,0.045245253,-0.121181324,-0.044563454,-0.9675188,0.8652029,0.006949719,-0.017713243
0.0038518682,0.8745749,-0.845268,-0.011914192,-0.66167533,1.2790264,0.009437874,0.00010958128
0.0023199394,0.17375246,-0.4325828,-0.0063931323,-0.75366163,1.2646254,0.003374353,-0.0062444527
0.0011260584,-0.21088941,-0.17130452,-0.008505015,-0.81905353,1.3767891,0.017055944,-0.0026566107
0.0011856034,0.6004544,-0.5958564,-0.00648546,-0.7714591,1.2988049,0.0059104264,0.0005642455
-0.0012106225,-0.08953498,-0.83850837,0.015585871,-0.6253228,1.2479327,-0.0043535456,0.001185609
0.0010975972,0.33078432,-0.95131826,0.0018813633,-0.7950845,1.3421568,0.0050611123,0.0026477259
0.0024117306,-0.036152527,-0.6904756,-0.0064828373,-0.7998017,1.2812616,0.0049146563,-0.0022701342
0.001539439,0.9278652,-0.3863833,0.000116857234,-0.6118773,1.12151,0.0073066168,0.0006718319
-0.0017893091,1.0620071,-0.9718697,-0.041432094,-0.92284024,1.3723122,-0.0054177605,0.0018794443
0.0037282184,0.49476647,-0.5761945,-0.021071194,-0.74851775,1.2586094,0.0065828264,0.003645001
0.00467138,-0.30371696,-1.2567105,0.012106927,-0.49530134,1.2816027,-0.004046455,0.008636108
0.0039231256,0.18204238,-0.31422177,-0.013247369,-0.7384591,1.2515012,0.0040863752,-0.004260065
0.00020117313,0.5675848,-0.7918215,-0.009373782,-0.82039547,1.3368493,0.004118003,0.0020710807
-0.002711229,1.0386498,-0.5593437,-0.021905659,-0.8368093,1.3098956,0.012554105,-0.0022869129
0.0010551289,0.99587756,-0.20522064,0.013526024,-0.8090099,1.3027433,0.003877554,0.0026904326
-0.0008269176,0.69538724,-0.53525126,-0.008991299,-0.7935792,1.3272685,0.0037723556,0.0018966179
0.0025687292,0.2861812,-0.0869157,-0.005616305,-0.7545601,1.2480853,0.006323889,-0.0044263024
-0.00044777244,0.1988708,-0.22903119,-0.0042920685,-0.79077995,1.227716,0.006231971,0.0022505056
0.007085331,0.65454876,0.010949612,-0.02170795,-0.77584314,1.2669648,0.0039156564,0.0044522565
0.003995903,0.5803525,-0.1919606,-0.021779297,-0.70533574,1.2449822,0.0075178593,0.003512917
0.004106112,0.27017283,-0.15618494,-0.00829613,-0.7456354,1.2467167,0.005245343,-0.004647972
0.0022252873,-0.11789341,-0.38609365,-0.022065459,-0.74223316,1.2666222,0.004997954,-0.00035941787
0.0044381097,0.388371,-0.4021611,-0.019558785,-0.7436143,1.2535018,0.0060194284,0.0025982242
0.004827358,0.2319967,-0.24640736,0.0006052875,-0.83601725,1.3017461,0.0044755265,-0.002267899
0.0029179603,0.88009703,-1.2965755,-0.018474517,-0.93166244,1.3647687,0.0011607148,-0.0009602327
0.0131611,1.1668522,-0.66484356,0.015502932,4.1864386,-1.4426564,0.0008502342,0.0037109647
0.0032795742,0.022639737,-0.08183214,-0.013502834,-0.75426865,1.2634592,0.006931901,-0.0010722298
-0.0022028014,0.11795771,-1.0484508,-0.03301042,-0.7592573,1.2849132,0.003269568,0.003560422
0.0017308667,0.83986616,-0.49619868,-0.008697985,-0.7883322,1.3195409,0.004395403,0.00023504905
0.0006680563,1.1258788,-0.76618695,-0.023421166,-0.86112595,1.3744886,-0.007252328,0.0007346254
0.002133377,0.4421516,-0.6415006,-0.019750474,-0.7695583,1.2656214,0.008033991,0.0013384204
0.007019311,1.0922428,-0.63744915,0.020774009,3.524037,-1.0693309,-0.0015968643,0.000118367374
0.0049063787,1.3429652,-0.25467646,0.41875196,1.4773082,-1.1990081,0.008137282,-0.0028279517
0.0010674074,0.30863363,-0.64308465,-0.007655022,-0.7589892,1.2613308,0.003345579,0.0007837992
0.006488405,0.10363658,-0.95420825,-0.118402496,2.8024778,-1.3161162,0.003366094,0.00022265874
0.005369805,0.0778282,-0.5825633,-0.14739178,3.1180289,-1.0272883,0.010939769,-0.0016701538
0.0032165125,0.2757156,-0.06742135,-0.0049580312,-0.75461316,1.2478248,0.0063979775,-0.0043887515
0.0013317242,0.82746804,-0.43273216,-0.019748716,-0.68122375,1.2219939,0.0064255334,0.00419241
0.001406379,0.32418162,-0.7070422,-0.019867538,-0.7837405,1.2661815,0.006229669,0.0006423574
-0.00048338622,0.28261536,-0.62777054,0.0011947178,-0.7592828,1.2868276,0.003473483,-0.0007974226
-0.0014727041,0.24979874,-0.9578409,-0.013138292,-0.80823696,1.328487,0.0048335344,0.0049239676
0.0007734969,1.1298225,-0.730301,-0.028190909,-0.8368504,1.3669215,-0.0044149756,0.0012773853
0.003538318,0.5604555,-0.15904322,-0.019386647,-0.72903824,1.2571865,0.006023854,0.0026193839
-0.00029294938,0.42229867,-0.6951456,-0.0011264659,-0.76220167,1.2934194,0.0044576675,-0.00065660663
0.0020297244,1.0524496,-0.2643147,-0.029383687,-0.7682203,1.1784807,0.0022448003,-0.0047562476
0.0034708455,0.5193313,-0.2460104,-0.024867771,-0.7036935,1.2363992,0.010088429,0.0023241024
0.0025992915,1.0813766,-0.28615573,-0.00068762666,-0.66496646,1.1178735,0.0043773837,-0.001542246
0.0069474056,0.77151054,-1.0210586,-0.010290382,-0.7160039,1.2671511,0.010135762,-0.0032251198
-0.0001129359,0.3485083,-1.259544,0.005351188,-0.8816507,1.3684574,-0.005377654,0.0034553017
0.0044791177,0.40776318,-0.0388391,-0.018403409,-0.7947327,1.2736781,0.006264448,0.0043617766
0.0053705648,1.2600247,-0.7880131,-0.021030543,-0.8819208,1.3694125,0.0062136725,-0.00057071634
0.0013816431,0.14790116,-0.5899441,-0.0065577007,-0.7805488,1.2631795,0.0044677258,-0.001974823
-0.0051733926,-0.12385471,-0.40010023,-0.015872745,-0.8347384,1.3642598,0.0028964505,5.560927e-05
0.0051269606,0.90691966,-0.04197809,-0.026257394,-0.75975966,1.2675539,0.008939721,0.003215192
0.0032591894,0.67322916,-0.6860485,-0.016944645,-0.80575943,1.3115778,0.0056962147,-0.000307085
-0.0010483786,0.8677704,-0.7112669,-0.0051377392,-0.7876996,1.3449998,0.004416257,-0.005720796
0.0028735474,0.19937633,0.0042677224,-0.0041420436,-0.7563175,1.2615978,0.007829517,-0.0036424417
0.0063915327,0.4920941,-0.09790251,-0.020490346,-0.79842865,1.2816694,0.005751811,0.006873695
0.0026858822,0.24461496,-1.4099486,-0.0076284087,-0.89088345,1.351209,-0.008023851,0.003422035
-0.002193831,0.7936092,-1.1313106,-0.016151486,-0.8912331,1.3574651,0.010025293,-0.0041781086
0.0029805228,0.95597667,-0.27118054,0.01598707,-0.687606,1.1764632,0.007918686,-0.0010246951
2.1614134e-05,-0.033046067,-0.7173953,-0.010436354,-0.77270925,1.307391,0.0018931925,-0.0025602747
0.006805606,0.63034046,-0.312942,-0.053537246,-0.7409743,1.2532653,0.0066965967,0.0064088088
0.0037577823,0.5111076,-0.57633567,-0.016748784,-0.75714314,1.2638981,0.008099571,0.00016462617
0.0025556162,-0.06904364,-0.02468288,0.0013987445,-0.7897742,1.2770365,0.009413302,-0.00094443746
-1.7210841e-06,0.5001551,-0.04058072,-0.014024494,-0.6836101,1.2385122,0.010040298,-0.0021030921
0.003681548,0.8466645,-0.031090006,0.021330537,-0.8848523,1.3134575,0.0042925067,-0.0031981338
0.008020841,1.2003098,-0.6776899,0.037028003,4.265104,-1.4876695,-0.00079961866,0.0006035622
0.0030642226,0.12816145,-0.27010348,-0.010584949,-0.7500658,1.2569833,0.004916951,-0.0037831087
0.0035063103,0.98697233,-0.9412824,0.0036212825,-0.8381469,1.338273,0.0028985888,-0.007343622
-0.0022257492,1.0619901,-0.57852983,-0.02178794,-0.80020607,1.3019639,0.013527233,-0.0010257084
0.0140533,-0.23375793,-0.30614603,-0.1084722,0.4080351,0.35401997,0.003623344,0.0049284194
0.003479667,-0.08928485,0.029495865,-0.011676906,-0.7615247,1.2661862,0.008749746,0.0019705277
0.0025909394,1.0286126,-1.2320795,-0.020403473,-0.94829714,1.3755158,0.0019555464,-0.0001165811
0.0048396066,1.3343723,-0.5554571,-0.04177123,-0.9546777,1.3883001,0.0038110167,0.0010872763
-0.0014102645,0.89828485,-0.99373806,-0.027704922,-0.69767416,1.2582618,-0.009374622,0.006241521
0.0051253513,0.28795183,-0.6495116,-0.035025354,-0.7606505,1.2404263,0.0026974827,0.0058626514
-0.0004176721,0.76600665,-0.4851134,-0.009607015,-0.7912108,1.3236185,0.0027702227,0.0019832533
0.004062958,0.17628117,-0.19410548,-0.014351724,-0.73738337,1.2484995,0.005224034,-0.0030164141
0.005480297,0.63901234,-0.024080366,-0.026514886,-0.72163975,1.2465285,0.0069571733,0.0029269438
-0.0012995526,0.043901727,-1.1548162,-0.009277431,4.091118,-1.2888418,0.008080408,0.00052171014
0.005300112,0.542895,-0.59432805,-0.020692823,-0.75798345,1.2574958,0.00867027,-0.0010790844
0.0013337508,0.488173,-0.85276055,0.013777437,-0.68116033,1.2925197,0.0035787597,-0.00023898669
0.006314583,0.51764953,0.08215532,-0.029059825,-0.73465335,1.2379377,0.0069300234,0.0045604687
-0.00068166107,0.6506755,-0.6886595,-0.00014173752,-0.78349805,1.3325001,0.0040438734,0.0005438607
0.007595964,0.62747854,0.024056524,-0.027290223,-0.7423042,1.2531352,0.0066910833,0.0050457697
-0.0020331666,0.14400485,-0.79945827,-0.006042359,-0.78335094,1.2890358,0.0024729818,-0.0028874297
0.0009962395,0.43384618,-0.4805706,-0.012728034,-0.80989826,1.3281109,0.001967281,0.0017192345
0.0025317296,0.5812352,-0.76581395,-0.17631039,2.827662,-1.2497225,0.0014655963,-0.0052660275
-0.001583688,-0.046340004,-0.7881751,-0.0031071282,-0.80292535,1.3088278,0.002876833,-0.0042806286
-0.0028619096,0.43406057,0.011758,-0.013607381,-0.6879269,1.2447282,0.011612624,-0.0011564512
0.0026441887,0.5375362,-0.58755493,-0.010499952,-0.76262903,1.2757012,0.007388413,-9.538606e-06
0.0015873387,-0.15064831,-0.5767243,-0.017678676,-0.78749335,1.2955828,0.00475996,-0.0015696306
0.0013910308,0.98655957,-0.54447395,-0.0023431755,-0.763585,1.334827,0.0039112493,-9.302981e-05
-0.0037171468,-0.06534922,-0.3885687,-0.0073510087,-0.8406714,1.3296832,0.0046152435,-0.0018005092
0.0024811476,1.3111613,0.030782074,0.06960735,1.0569419,0.10203907,0.0044996217,0.0032136068
0.0014181808,1.0714645,-0.3036039,0.0017198347,-0.7590569,1.279949,0.0032755695,0.007915063
-0.0021226332,0.2635054,-0.8282927,-0.0195384,-0.83357275,1.3107216,0.0048733354,0.0008295458
-0.0010834858,1.0462085,-0.65019834,-0.02649921,-0.8226453,1.3120642,0.009703014,-0.00061169453
0.0020306483,0.70891654,-0.92432284,-0.021607218,-0.74418104,1.2828294,0.0064196624,-0.0011464078
0.0041572526,0.72820836,-0.36735228,-0.027540563,-0.76630354,1.2779976,0.0064858124,0.0026875716
-0.0063980594,1.1760215,-0.0406892,-0.009337543,-0.7144464,1.13794,0.0025955215,-0.013086317
0.0019310489,1.0705765,-0.5166905,-0.0094186645,-0.7600801,1.3085289,0.013791859,0.00081133656
0.0014751628,0.47383672,-0.39957604,-0.013810752,-0.7323289,1.2604166,0.005404398,0.0034387093
-0.0023746416,0.19208328,-0.8293772,-0.011853455,-0.8095465,1.2974045,0.0021533445,-0.00033620186
0.00234849,0.41416502,-0.67026365,-0.024568317,-0.78054714,1.2661945,0.008746162,0.0011521559
0.0009450391,0.51809645,-0.47013378,-0.0044665313,-0.7565173,1.2827537,0.0056752935,0.0026935916
0.0018527061,1.2255672,-0.72969055,-0.001310674,-0.92941546,1.3651443,-0.00032123923,0.00042360835
0.0006125644,0.9843623,-0.5375414,0.0015326762,-0.77246225,1.341123,0.0036241636,0.0003882628
0.003741391,-0.062567964,-1.1189612,-0.00085145,-0.62510467,1.2593328,0.0070289634,0.0045684557
0.005505629,0.512689,-0.631583,-0.020014165,-0.76546276,1.2615074,0.009195372,-0.00017452426
0.0058955625,-0.41511756,-0.69610786,0.5715898,1.0584124,-2.245427,-0.0048464686,-0.0016909484
0.00086874515,-0.21610458,-0.61080235,-0.009896634,-0.8260554,1.3143169,0.0069238394,-0.003519239
0.0014458373,-0.15184243,-0.58628225,-0.017954348,-0.7771932,1.2948486,0.004343942,-0.0014252979
0.006030701,1.245454,-0.42858875,0.76016736,-1.1000389,-1.4952666,0.0049490854,-0.004631156
-0.00039159507,1.2868433,-0.5182005,-0.04208189,-0.92066276,1.385019,-0.00016387925,0.0023244899
0.0015380308,0.33860457,-1.0942664,0.012577059,-0.4015008,1.1433288,0.0017992333,0.0034991484
0.00064667314,-0.12494613,-0.9978179,0.030966075,-0.4541777,1.2030796,-0.0001494214,0.0008793678
0.0057945475,-0.3573417,-1.0682583,-0.0019932366,-0.5769557,1.3601407,-0.008176569,0.0091118645
-0.003944628,0.11126605,-0.91216755,-0.00078892475,-0.81390774,1.3276342,0.0013022646,-0.0015105624
0.0019425824,-0.082831606,-0.4873418,-0.02041149,-0.7527691,1.2775584,0.003881134,-0.0016608853
-3.7781894e-05,0.53687286,-0.44204786,-0.02068889,-0.8161969,1.3330017,0.0034039319,0.0036873203
0.0015855208,1.3156673,-0.50917685,-0.04322153,-0.95439935,1.3905214,0.0007083714,0.0011675339
0.0010444894,0.14279062,-0.7195276,-0.005330292,-0.7386824,1.281134,0.0024836585,-0.0010932107
0.0016426966,1.2288285,-0.2093823,-0.011030374,-0.52629745,1.0320759,-0.0006852709,0.0035291966
0.00672058,0.59342635,-0.061572403,-0.021118222,-0.80764353,1.2842829,0.006507084,0.005719958
0.011051394,0.098639235,-1.2353398,0.057751644,1.8086534,-0.13491298,0.0058840513,0.0057027824
-0.0026644394,1.1301174,0.016490564,-0.05690485,-0.85634124,1.3756293,0.016320378,0.00515504
0.0013310388,0.05612129,-0.22057131,-0.0011350489,-0.77803206,1.2695205,0.006204948,-0.0041974206
-0.00013392419,0.35381788,-0.771549,-0.028030155,-0.8368993,1.3023995,0.008059904,0.0021047574
-0.0014164075,0.62121,-0.6177546,-0.008365391,-0.7939764,1.3371316,0.0040950924,0.0018831771
-0.00045578927,0.26851726,-0.7910546,-0.024081586,-0.83173776,1.2954262,0.0054775327,0.001801787
-0.0047188327,0.98360556,-0.65996724,-0.025138853,-0.8829899,1.2880037,0.009751588,-0.0011522789
-0.002333872,1.1001673,-1.0613825,-0.04110801,-0.95625174,1.3779379,0.0025371015,-0.0022404362
0.0044177547,1.1731097,-0.80175626,-0.015147267,-0.8553406,1.3613018,0.0015191473,-0.0002595801
0.0019162372,0.5222802,-0.7210953,-0.012441395,-0.7925556,1.2966524,0.0064992383,0.0007685404
0.00067613274,0.03065075,-0.20536381,0.0038512372,-0.80151546,1.2819747,0.006663803,-0.0042479057
0.007868834,0.513082,-0.49484035,-0.029787062,-0.72689116,1.2433765,0.004429862,0.00625485
0.0019450858,-0.14493339,-0.34197465,-0.020811139,-0.7429856,1.2666367,0.0056008697,0.00016313605
0.0046751946,-0.2775327,-1.241579,0.011287691,-0.4807658,1.2647713,-0.0041091368,0.007528847
0.0014930144,1.036181,-0.2373673,-0.015993474,-0.8548223,1.3327774,0.010356039,0.011751203
0.004097827,0.86548537,-1.0483973,-0.00465065,-0.8416921,1.3248833,0.0076538287,-0.006764503
0.0011859611,1.1432308,-0.6229967,-0.027542649,-0.8653345,1.3618147,0.0032527521,-0.0018118639
-0.0017117783,0.6594477,0.08619639,-0.014856694,-0.65272427,1.2430078,0.016292527,-0.0013566632
0.006672539,0.5867805,-0.067361146,-0.020255147,-0.81549954,1.2871703,0.0062700883,0.005763052
0.008303314,1.0225266,-0.7113111,0.0069035315,1.929149,-0.18935052,0.0052097663,-0.0030643903
0.00040832907,0.99349314,-0.7079295,-0.008346377,-0.79556537,1.3147991,0.008316051,-0.005292507
-0.002916269,0.85667545,-0.71703744,-0.024866698,-0.8539672,1.3118211,0.006223887,-0.004657628
0.004140027,0.40361995,-0.43684152,-0.019251345,-0.7411933,1.2502748,0.004277557,0.0040664654
0.0051180795,1.0702173,-0.8093163,-0.012631355,-0.79345083,1.3431289,-0.0015989393,0.00029486232
0.0030102804,0.83984506,-0.12557915,-0.01247084,-0.80075157,1.2975489,0.0074342154,0.0007732194
0.0026347712,0.79992396,-0.5330272,-0.010527132,-0.7845795,1.3095087,0.0051944777,-0.0005711634
0.0014249757,0.99433297,-0.46265814,-0.0054734326,-0.783707,1.3224083,0.007436201,0.0038940292
-0.00025709718,0.885572,-0.6725354,0.0021465146,-0.40815198,1.1226466,0.0016279444,0.0025371816
0.003565736,0.5024617,-0.13321295,-0.018001078,-0.7419665,1.2589248,0.005394429,0.0020824652
0.003875263,0.35521638,-0.105682164,-0.010205625,-0.7379668,1.2400893,0.005568221,-0.0042156
0.0024340823,0.49829674,-0.22858912,-0.01577088,-0.77628887,1.2243702,0.0076064393,0.0049815606
0.012199663,0.5235895,-0.95163333,0.002698692,3.4691672,-1.0394566,0.0051171966,-0.0017825756
0.008537836,0.5147665,-0.5243639,-0.033132907,-0.741832,1.2483124,0.006414041,0.0051896553
0.00077230483,-0.16253422,-0.6097938,-0.014719484,-0.7983074,1.3039659,0.0046617687,-0.0023260135
0.00021681935,0.5633245,-0.38984242,-0.018223045,-0.8081678,1.3235631,0.0038750283,0.002987532
0.0058286265,1.198301,-0.6794542,-0.013939915,-0.9051559,1.3646382,3.639236e-05,0.0021338593
0.0010158494,-0.013934031,-0.73096037,-0.0036338544,-0.789628,1.3038597,0.005012855,-0.0036997218
0.0051283315,0.52114755,-0.09520218,-0.01989743,-0.8405006,1.2993426,0.0047025755,0.0061284285
-0.003931038,-0.10737373,-0.9313196,0.0068881535,-0.8193687,1.345988,-1.2226403e-05,-0.0030310769
0.0022544935,0.2748735,-0.2252461,-0.007057605,-0.86310196,1.3158227,0.004150171,0.0040212553
0.005426474,-0.020575985,-0.579934,-0.009679435,-0.788718,1.2744491,0.0076808184,-0.002229454
0.0033631995,0.63162595,-0.008987039,-0.023976324,-0.68174744,1.2333812,0.01055941,0.0014280658
0.0063134804,0.5497501,-0.09365058,-0.020132659,-0.8340905,1.2965204,0.006454423,0.006564973
-0.0030704066,0.93697584,-0.6858555,-0.021256564,-0.8669419,1.2990265,0.008690197,-0.0033438224
0.0039467886,0.9697471,0.047341526,-0.010335682,-0.77307045,1.2918447,0.008217141,0.0019144397
0.0030569509,0.71699613,-0.38992926,-0.019362329,-0.7690915,1.2833645,0.0062287897,0.002156077
0.000115044415,-0.008014813,-0.14236832,0.0071941637,-0.8180809,1.2891043,0.0073730573,-0.0029177088
-0.0041844174,0.44711643,0.02072373,-0.008876918,-0.67936146,1.2494428,0.013192028,-0.0027282257
0.0036538318,0.048741624,-0.111307114,-0.014208673,-0.7520566,1.2633792,0.0063489377,-0.0015800018
0.00054938346,0.7793308,-0.32856768,-0.017890034,-0.80590796,1.3188294,0.004972577,0.0023095887
0.0006681755,0.47638178,-0.60555255,0.0008237981,-0.7619102,1.2961363,0.0048341826,0.0009143632
0.0016147569,-0.12599517,-0.70870996,-0.016996143,-0.8160119,1.2650458,0.00087478757,-0.00071835704
-0.0011656508,1.2469516,-0.948791,-0.028089074,-0.95564973,1.3894194,0.004086815,-0.0030490775
0.0036600903,0.94157344,0.0040186346,0.0091448445,-0.7987188,1.2884045,0.0041332245,-0.0015760679
0.0016314164,1.0902643,-0.24522364,-0.017983912,-0.8346132,1.3069721,0.0041891374,0.010247109
0.010640703,1.2588184,-0.3052277,-0.0053328252,4.7027216,-1.734226,0.0005964488,0.011388877
0.00047702342,-0.0826603,-0.08549878,-0.0025560237,-0.7826201,1.2731041,0.0084383115,-0.0013212878
0.005474396,0.41955715,-0.43475214,-0.027273295,-0.7367383,1.2448678,0.003908187,0.0061184745
-0.0013182089,-0.020469815,-0.17559192,0.002358886,-0.8525685,1.3430256,0.008096751,-0.0011933763
0.0019504204,-0.28205842,-0.9980186,0.02122295,-0.55450916,1.3230344,-0.0060488097,0.0019518863
0.0016529635,0.5745826,-0.5661181,-0.008215545,-0.76693594,1.2876884,0.0065161213,0.00069933943
0.00089580566,0.041584626,-0.12777835,0.005418899,-0.8004186,1.2776502,0.0073901564,-0.0038083512
0.0020452812,-0.21732892,-0.64617175,-0.009308575,-0.8299494,1.3022803,0.0064380765,-0.002724411
-0.0025157854,0.027202696,-1.0041789,-0.012935935,-0.8341191,1.3402992,0.0019330308,0.0045936983
0.0045788065,0.76491684,-0.048158586,0.006580832,-0.8021841,1.2297596,0.0041247085,-0.0021293033
0.0038465932,0.04804404,-0.70093775,-0.03031647,-0.79088414,1.2426538,0.0008854121,0.0029891115
-0.0015758574,1.2383337,-0.62568355,0.04235818,3.3703747,-1.0323108,0.0051327124,-0.0016565975
0.0012492985,0.3196566,-1.5140781,-0.021454839,-0.8964367,1.3253142,-0.00813723,-0.0065052975
0.0072646514,0.85191214,-0.9614943,-0.003982661,-0.7126329,1.2618891,0.0117897615,-0.00612426
-0.003533326,-0.04753521,-0.5068345,-0.025707392,-0.73944795,1.2540287,-0.000134103,0.0043002795
0.0045765117,0.3027736,-0.21324691,-0.009939192,-0.7390499,1.2443763,0.00442034,-0.0052022953
0.0010352209,-0.09611817,-0.26416895,-0.009502767,-0.7674513,1.2723693,0.006461136,-0.0015766639
0.002472438,1.2230307,-0.5669807,-0.035126623,-0.79023767,1.3402737,0.0015161112,0.004930971
0.0055733398,0.67619485,-0.39795884,-0.03599536,-0.7593615,1.2660894,0.007334009,0.0027436
0.0024558976,-0.48755956,-1.3083748,-0.036145326,-0.6104598,1.3472602,-0.0013154112,0.008752866
0.00230027,-0.11679469,-0.42221293,-0.028461097,-0.77249074,1.281366,0.0051952153,-0.00038731284
0.0020744875,0.21222068,-0.25689384,0.003205242,-0.77888167,1.2647952,0.0049698204,-0.0068793315
-0.0024970695,0.21717027,-0.7442063,0.00028664107,-0.7716416,1.2989805,0.00302051,-0.002916934
-0.0023252517,-0.5923003,-1.4035012,0.0058658742,-0.6509546,1.3834418,0.006302066,-0.0011547748
0.0029965118,0.49625856,-0.1216903,-0.01829481,-0.72285676,1.2474531,0.0056722015,0.0005205255
0.0030304268,0.7258833,0.0014422685,0.012690606,-0.78464234,1.197241,0.0020262375,-0.0029780585
0.0004626289,1.0338395,-0.5913408,0.005817356,-0.7298677,1.3204185,0.0056457743,-0.0046915878
-0.000149481,0.39684665,-0.6538732,0.0001639151,-0.75849473,1.2892765,0.0041482076,-0.00034642406
0.0016317442,0.426475,-1.0699639,-0.01635742,-0.6086321,1.2050027,0.011332821,-0.0036643166
0.006674461,0.5773711,-0.9010166,-0.021952389,3.6660337,-1.2553325,-0.00491846,0.0010566358
0.004920788,0.6378518,-0.23378578,-0.034470793,-0.7509084,1.26502,0.009912312,0.0054104906
0.00035921484,-0.190832,-0.80788493,0.019685509,-0.643286,1.3081805,-0.008589741,0.0025307517
0.0017542914,0.8551749,-0.5303141,-0.008172153,-0.7911756,1.3252398,0.004170403,-0.00021708198
-0.003572911,1.1772509,-0.23440886,-0.0040675676,-0.30307892,0.8562045,-0.0022760443,0.0025148224
0.0012582615,0.8789638,-0.2200273,-0.0044628954,-0.79573894,1.3040158,0.004181329,0.0011712592
0.006229587,1.0107113,-0.87681556,-0.014786003,-0.82855976,1.3486422,-0.00057726353,-0.0007382054
0.0032863691,0.5566297,-0.22916606,-0.018725036,-0.71817756,1.2547723,0.006695524,0.0034293514
0.0031176284,-0.017110825,-0.3584253,-0.022224782,-0.7358029,1.2594799,0.0046395212,-0.0011528153
0.00014776736,0.9254062,-0.61975825,-0.009842275,-0.7933818,1.3378059,0.0044895858,-0.0072794873
-0.00017180294,0.84300226,-0.49641654,-0.0053878403,-0.78387344,1.3254513,0.0011495464,0.0016617309
-0.00047781318,0.66282386,-0.7661222,-0.0016118861,-0.803215,1.3531147,0.0034985319,0.0013866406
0.007568486,1.2258791,-0.6526581,-0.021885095,-0.8884531,1.3622276,0.002523072,0.003139345
0.0017764047,0.23323055,-0.51399237,-0.003410337,-0.7676017,1.2689666,0.006326407,-0.0022336263
0.0050027072,1.2219541,-0.59796643,0.007265153,-0.46053466,1.1175417,0.002242349,0.0059904214
0.0009602383,-0.20353298,-1.2419655,0.0051979446,-0.5625887,1.2076485,0.0043982267,-0.0018267054
-0.0026030168,1.2162907,-0.07155247,-0.029947935,-0.7840823,1.2653629,0.0063515306,0.0018615704
0.0010494068,0.7389466,-0.2957522,-0.016691266,-0.8061193,1.310077,0.007565044,0.0019153338
0.0029505864,1.1239567,-0.8831662,-0.02495983,-0.8919226,1.3689367,-0.0003992617,-0.0011312682
0.0068530515,-1.3444157,-1.623216,0.0971276,4.002796,-1.6227444,-0.011222526,-0.0049424265
0.0032053813,0.420734,-1.0088195,0.01847923,-0.40302756,1.1721083,0.004113842,0.0033967923
-0.003778331,0.19218546,-0.8461342,-0.004842577,-0.79584265,1.3082554,0.0021867305,-0.0024956483
0.0036523417,0.3749246,-0.16610858,-0.008982776,-0.75311184,1.2531704,0.0053529367,-0.0022908766
0.0013656691,-0.01259096,-0.578282,-0.021749018,-0.7875875,1.3081448,0.002887871,-0.0027679522
0.004733987,0.5947154,-0.57571495,-0.015797017,-0.76361203,1.2647675,0.008186176,-0.0014832038
-0.00060331076,0.3440395,-0.79019356,-0.028644918,-0.8466053,1.3092893,0.00791955,0.0022771936
0.0056188777,0.43582964,-0.28932366,-0.020471094,-0.8384297,1.3178382,0.0042853504,0.00454217
0.0015844777,0.39436704,-0.6269542,-0.010793207,-0.7547283,1.2589792,0.0048618615,0.0013735276
-0.00063659996,0.5817235,-0.5575353,-0.009404955,-0.78591657,1.3241937,0.005186513,0.0023311656
-0.0030003116,-0.07581465,-0.7842425,-0.008914826,-0.8265146,1.288801,-0.0021257252,-0.0015172083
0.0031563714,0.035436913,0.064717025,-0.008154629,-0.7687249,1.267706,0.008277059,-0.0010959525
0.0041058734,0.74221176,-0.2837741,-0.035537478,-0.7841923,1.2913064,0.00884562,0.0038635712
0.0012689903,0.92810434,-0.18897617,0.0067451023,-0.8074708,1.3040236,0.0038971156,0.0006555896
0.003054805,-0.046472743,-0.23028651,-0.019936321,-0.7407665,1.2617694,0.0058983862,-0.00028974004
0.0037406161,0.7166025,-0.12266675,-0.021137116,-0.771929,1.2810193,0.007207118,0.0027491134
0.00086215883,0.8507892,-0.48715773,-0.006609676,-0.7905326,1.3278314,0.0037947074,0.00084566884
0.0042362288,0.83107245,-0.30435643,-0.02751684,-0.7731174,1.2852526,0.005868338,0.0026788097
0.005374439,0.72392297,-0.31233522,-0.041839596,-0.7619022,1.2721645,0.006921679,0.0045005064
0.0008499101,-0.03681469,-0.5425424,-0.025526641,-0.80053174,1.3157108,0.0032253899,-0.002349006
0.013649784,0.83426255,-0.932286,-0.2112815,2.8860207,-1.177976,-0.0013117194,0.002512103
0.0014571026,0.59625494,-0.3586152,-0.01411855,-0.7724478,1.2924906,0.0067496076,0.0033166688
0.003968768,1.2409363,-0.49145365,-0.023632823,-0.7933477,1.3065872,0.008721441,-0.0035875011
-0.001874797,0.3934162,-0.79678404,-0.006792424,-0.79890776,1.3185712,0.0050362647,-0.0008524377
0.0024681166,0.55267197,-0.22035715,-0.013807951,-0.768492,1.285666,0.004293196,0.0030908864
-0.0008386597,0.53758144,-0.6599293,-0.005210159,-0.7910936,1.3384706,0.0036980882,0.0008723121
0.014063261,0.7209736,-0.95812845,0.038752753,3.0495038,-0.8340132,-0.0043952093,0.0029966235
0.004486032,0.9329352,0.08320233,0.00081110233,-0.7714114,1.2758318,0.0028493404,-0.0013466198
0.0027683452,0.7004277,-0.29229093,-0.021965204,-0.7055303,1.1757497,0.010903716,0.0036819112
-0.00058779866,0.9870733,-0.6768215,-0.003568945,-0.69140995,1.3122281,0.0052192137,-0.0066417325
0.0007303655,0.6842974,-0.8570783,0.0061869645,-0.37226388,1.142161,0.0040567517,0.0050437655
0.0014545992,0.4692232,-0.6456388,-0.017231701,-0.7678585,1.2726307,0.008533791,0.0006973725
-0.0037057623,-0.12220974,-0.9646776,-0.00611305,-0.8493092,1.3510089,-0.002183199,5.98114e-05
0.0027553514,0.07895084,-0.08553037,-0.009853838,-0.7537912,1.2554511,0.007152036,-0.0017691869
0.0030343905,0.9813215,-0.77050424,-0.009427188,-0.71979547,1.3012408,0.0095288865,-0.0027742703
0.002533324,0.11249237,0.07073358,-0.0035495735,-0.76735663,1.2725667,0.00872907,-0.0026869792
-0.0007973239,0.24368541,-1.0233406,-0.02103716,-0.7629622,1.3058084,0.003432557,0.0054484885
-0.0040173456,0.8572698,-0.72054505,-0.030185698,-0.86735964,1.3018527,0.0073470026,-0.0031970758
0.0023107305,0.1369608,-0.06990671,0.014671179,-0.8501648,1.30054,0.00501395,-0.001942249
0.0032610372,0.6023697,-0.69839656,-0.013876198,-0.80015707,1.3013824,0.0060809106,0.00010925345
0.0027164295,0.9448462,-0.114415914,0.001908543,-0.79811275,1.2909678,0.005909588,0.0012538414
0.00149066,1.0253949,-0.122689754,-0.0019323207,-0.83348715,1.2997766,0.0065981373,0.010248927
0.0052754357,0.6817737,-0.39682874,-0.033987995,-0.7605814,1.26819,0.0071998984,0.0026652198
-0.0010401532,0.27007085,-0.949023,-0.0072544194,-0.80884075,1.3357962,0.005166881,0.0028170329
0.0009967163,0.70931536,-0.5963592,-0.005663154,-0.781899,1.3168942,0.004818041,0.00020077638
-0.0015930757,0.2164514,-0.7871245,0.0012006783,-0.7813041,1.3291894,0.002099339,-0.0041298587
0.0016009882,0.880506,-0.47202888,-0.008626042,-0.79128754,1.324239,0.0040243194,0.0004011672
0.0039525107,0.4677971,-0.16737202,-0.015751896,-0.7695178,1.2731017,0.0048484504,0.0035057645
0.0064513013,0.511932,-0.54120266,-0.069043174,0.6315055,0.36239642,-0.0028731972,0.0054474985
0.006663412,1.2685194,-0.21741003,0.02749783,0.11868232,0.6132027,0.0062023513,0.0101327095
-0.005060889,1.1471394,-1.1427573,-0.029673366,-0.9715425,1.389947,0.0054030716,-0.0074155945
0.005147703,1.0937259,-0.3861854,0.0006735348,-0.7577933,1.294787,0.005017787,0.0057937633
0.007960774,0.9219656,0.058712423,-0.0036929823,-0.77319646,1.3007845,0.009224899,-0.0005269367
0.0035566166,0.80472165,-0.605785,-0.016245244,-0.7889098,1.311978,0.0057002082,-0.0020791907
0.0027543828,0.8356313,-0.17851293,0.009222867,-0.7291031,1.168113,0.0094143,-0.0024705548
0.0005046204,0.0025198758,-0.27964616,-0.002532599,-0.79366314,1.2844368,0.0060068443,-0.0040067453
0.003663905,0.13936286,-0.0029194057,-0.007867692,-0.76021254,1.263739,0.0071884394,-0.0027707238
0.0013287142,0.37907404,-0.3124195,0.00014555687,-0.77401626,1.2789347,0.003505431,-0.0033860523
-0.0003253743,-0.13421993,-0.7463834,-0.006004212,-0.7906747,1.3163902,0.003083758,-0.003961893
0.0017711595,-0.0005169809,-0.45188403,-0.016008435,-0.767745,1.2809786,0.0038555712,-0.0032429714
0.0031511262,1.1626613,-0.25804073,-0.014011739,-0.72958636,1.2029091,0.0015095733,0.0061728638
0.0031223968,-0.092975095,-0.09623936,-0.016574858,-0.75925624,1.2750978,0.0070084184,7.307343e-05
0.004034929,0.2823953,-0.5655431,0.5533694,0.15307274,-2.0642543,0.00040978193,-0.0025967453
0.003839381,0.92111516,-0.121148676,-0.019441126,-0.7803346,1.2796112,0.007901438,0.0035446566
0.005882092,0.28801924,-0.3132448,-0.017508982,-0.71270835,1.2336518,0.005346626,-0.0029993672
0.003133744,-0.3173644,-0.87713516,0.014984669,-0.41323647,1.2345763,-0.0076201,0.009162379
0.004670985,0.906299,-0.82857215,0.0011953139,-0.8864336,1.3169373,0.006023098,-0.010859491
0.003116317,0.14442007,-0.3527743,-0.010611771,-0.7495309,1.2583425,0.0039631277,-0.004675748
0.008175202,1.18705,-0.41250518,0.9471675,-1.3634213,-1.675564,0.015424341,-0.0015426893
0.012306802,1.156161,-0.52328825,0.02239454,4.1117444,-1.4400469,0.0045106113,-0.0010147896
0.0023670867,1.0276761,-0.4111163,0.002577784,-0.796662,1.334237,0.0075831376,0.0053939205
0.0022838488,1.05216,-0.20706312,-0.021743594,-0.78358614,1.1690536,0.0018995777,-0.0061438326
0.002788134,0.16484587,-0.5991883,-0.019041775,-0.77684,1.2498232,0.0026338696,0.0013934951
0.004362829,0.61795765,-0.4527078,-0.026987432,-0.7594136,1.2685512,0.007349193,0.0021032076
0.004042387,1.2057961,-0.2635917,0.019338103,-0.3507824,0.8950354,0.002272062,0.0032368694
-0.0025049374,0.8133226,-0.70430326,-0.0015486754,-0.38782275,1.0722784,0.002506055,0.0026849192
-0.0009064898,0.68296605,-0.54751146,-0.013828455,-0.7788631,1.323162,0.0034716427,0.0025619548
0.0017126873,-0.09364016,-0.43747836,-0.018815396,-0.7552314,1.2753768,0.004428111,-0.0016056616
0.0033650175,0.37320507,0.031950027,-0.012902139,-0.79593897,1.2739013,0.0033765212,0.0038820785
-0.00047843903,0.73294675,-0.8235924,-0.022218226,-0.82584393,1.3097212,0.005081989,-0.0031743068
0.0011296347,0.88750035,-0.26737097,-0.012162624,-0.79158974,1.3009565,0.003786128,0.002049623
0.0015091375,1.0635545,-0.485225,-0.010843692,-0.76738656,1.3049005,0.014811359,0.0031273346
-0.0035228655,0.8696619,-0.7311021,-0.028480409,-0.8681593,1.2935891,0.008311577,-0.0024030823
0.0033721998,0.48702908,0.062038153,-0.024769066,-0.7118887,1.2349098,0.009252265,0.0021073204
0.003651686,0.31559247,-0.2693002,-0.002851603,-0.75415695,1.2551371,0.0040181875,-0.006126942
0.0108982995,0.93663585,-0.7525815,-0.028848914,4.2782598,-1.492286,-0.0075386986,0.0045117084
0.002443917,1.1527439,-0.6875651,-0.029570876,-0.780669,1.3499249,0.0001533106,0.0052782577
0.0023886636,0.5929759,-0.68498945,-0.009018181,-0.78247404,1.2998866,0.0061351582,-0.00038978644
-0.0005949661,-0.14890195,-0.7358974,-0.003706453,-0.81913817,1.2887431,0.0018311441,-0.0038325805
0.0044490173,1.2482946,-0.3797499,-0.015769122,-0.69450045,1.222418,0.011232872,-0.0039741416
0.006119229,1.3808473,-0.27583796,0.16029294,3.04007,-1.0779061,0.0057999417,0.0046984497
0.0043414757,-0.261638,-1.0418534,0.0087325,-0.6577852,1.3594304,-0.004866861,0.0042386334
0.0013898388,0.46912247,-0.5674853,-0.01541221,-0.82022095,1.3361353,0.0035748556,0.0025499444
-0.0001430437,0.79354435,-0.46965793,-0.025343357,-0.6142733,1.1206723,0.008958735,0.0035693105
0.002669759,1.0935096,-0.7484473,-0.020026563,-0.75946844,1.3345395,0.0031715706,0.0009818356
-0.002034299,0.99343896,-0.6786312,-0.025582312,-0.8614515,1.3040456,0.00875739,-0.0010140557
0.0035052374,0.8820353,-0.17265823,-0.020503161,-0.78519964,1.2872251,0.008092858,0.0032785814
0.0034340099,0.72635573,-0.6601401,-0.017873405,-0.8027406,1.3134043,0.0056560263,-0.0009152908
0.0061023906,0.51072574,-0.11671519,-0.019251166,-0.8058878,1.2862931,0.005969599,0.0063400846
0.0038843825,-0.0026923567,-0.65727437,-0.019061683,-0.7974688,1.2531537,0.0031787157,0.0006182175
0.0058967844,0.9604084,-0.56709194,-0.031879988,-0.028324313,0.83831346,0.012000829,0.004218908
0.0030700415,0.1989734,-1.146187,0.024336489,-0.37754205,1.1217946,0.0051933564,0.0023196954
0.0036243275,0.036102965,0.027772993,-0.00979471,-0.76810014,1.2715672,0.007564768,-0.0014469046
0.0032586232,0.53932357,-0.305318,-0.025645254,-0.83600914,1.3251067,0.005151596,0.005778132
0.00085581094,-0.13009925,-0.1963121,-0.009787796,-0.768481,1.2722847,0.007366799,-0.00057709403
0.0114322975,-0.70812196,-1.4884923,-0.08818564,4.1729164,-1.6113516,0.0036000423,0.0016085636
0.005998604,-0.22542934,-0.80715454,0.46904472,0.81349695,-2.091726,-0.0035447776,-0.00075883605
0.0017525032,0.14305544,-0.3037035,0.0006787204,-0.77745295,1.2681452,0.0048518106,-0.006142469
-5.7004392e-05,0.9373586,-0.4992732,-0.004369972,-0.7740686,1.3310788,0.0008943416,0.0012985449
0.004578121,0.803523,-0.27657154,-0.035532113,-0.773648,1.2846904,0.0066021904,0.0038598161
0.00044678152,0.9739006,-0.4793837,0.005475702,-0.5075531,1.0812157,0.0040867887,0.00050779246
-0.00011783093,0.14245819,-0.6558265,-0.0065182424,-0.7693902,1.3045429,0.0014165267,-0.0035979468
0.004522212,0.79836434,-0.06953791,-0.025153993,-0.77134466,1.277293,0.008706428,0.0026834887
0.0020405129,-0.025643036,-0.5107931,-0.017884193,-0.7586994,1.281077,0.003455542,-0.0026644785
0.006969191,0.5269343,-0.07687026,-0.021577118,-0.80214274,1.281597,0.006441556,0.0067269485
0.0029102638,0.013686404,-0.26077965,-0.01706159,-0.7413467,1.2577039,0.0055352896,-0.001410665
0.0029435232,0.73052835,-0.61204123,-0.010275004,-0.7809994,1.3047062,0.0057682917,-0.0013197977
0.006077744,0.24150555,-0.5405208,-0.021155654,-0.8377218,1.3297637,0.0013454854,0.0011276435
-0.0032312497,0.092908956,-0.9708985,0.004383328,-0.81297195,1.3443819,0.0027363077,-0.0012968201
0.0055151656,0.5672831,-0.357654,-0.04158115,-0.73140466,1.2500681,0.0057177693,0.0057720523
0.0015962198,0.9899358,-0.071542144,0.0035210275,-0.8321028,1.2968621,0.0043052696,0.006440101
0.004497312,0.54521954,-1.4155124,-0.01960945,-0.9156544,1.3417529,-0.0008340627,-0.0026371349
0.004724033,0.9458367,-0.8029678,-0.001603005,-0.9094691,1.332643,0.0024397857,-0.011810007
0.0020546988,0.6763706,-0.67861384,-0.009557484,-0.79310083,1.315938,0.005208604,-0.00036671944
0.0070921853,0.55074924,-0.5102048,-0.04078519,-0.74943316,1.2480482,0.008873999,0.0015823226
-0.0009089038,-0.07221486,-0.28811526,-0.007860092,-0.80545175,1.3139516,0.010874376,0.00028627925
-0.00060976297,0.8453848,-0.526877,-0.007745979,-0.67829835,1.2488459,0.0026588105,0.003129689
0.00853131,-0.18348865,-1.1808199,0.03236935,1.3136219,0.22360665,-0.0018586218,0.0048662983
0.002924867,-0.13195042,-0.5314968,-0.02236533,-0.8011992,1.2954491,0.006209001,-0.0016871113
0.000553973,0.31485638,-0.42078286,0.0006299638,-0.76612985,1.2822524,0.0032970533,-0.0051252563
-0.0012436435,0.6711985,-0.58273315,-0.010349689,-0.78609014,1.3309481,0.0030958503,0.0022207182
0.0057247356,0.6795726,-0.038130194,-0.030025003,-0.6784059,1.2259097,0.010230765,0.003741024
0.0016355589,1.169406,-0.7513702,-0.02214831,-0.8126817,1.3573284,0.00150818,0.0030681472
0.0045775846,0.21662755,-0.30417058,-0.01167476,-0.73197985,1.2474258,0.0042885244,-0.004697742
-0.004036896,0.4326982,-1.154176,-0.026852576,-0.7973405,1.3018225,0.0026895218,0.0008891206
-0.002011679,-0.07122585,-0.8028704,-0.0013625002,-0.8052392,1.3192254,0.0031929687,-0.0049839932
0.009627424,0.47784728,-1.3331844,0.013766633,4.1301613,-1.347116,-0.0018840134,0.011083586
0.00664673,1.1543673,-0.73773885,-0.015633224,-0.8613312,1.3565373,-0.0006741248,0.0014185291
0.004307337,0.5012363,-0.5556326,-0.02073562,-0.75057304,1.2596349,0.007566929,0.0014404636
0.010776855,1.0464913,-0.49691895,-0.013093052,2.5709097,-0.59326184,0.010712441,-0.0010228511
0.0038197115,0.5307087,-0.94885933,0.0015985393,-0.676545,1.3067014,0.004352648,0.0048823934
0.0050451234,1.0673751,-0.19064762,0.01708302,-0.6327125,1.1180208,0.0060891993,-2.6116148e-05
-0.0041833445,-0.18756218,-0.78949964,-0.0044318414,-0.8467058,1.298074,-0.003358692,-0.0023466963
0.008435614,0.60716945,0.085736245,-0.025840757,-0.7391249,1.2421098,0.0034965724,0.0047604423
2.5697052e-05,1.1621552,-0.6503672,-0.035831925,-0.89642704,1.3882934,-0.0032742843,0.00047361664
0.005373843,0.4547572,-0.45760658,-0.023169992,-0.7296721,1.2493054,0.003432408,0.0070399623
0.003608115,0.098517746,-0.5299152,-0.008362291,-0.77514064,1.2694405,0.0070606023,-0.003213467
0.007924147,0.5693096,0.021543205,-0.027361093,-0.7513517,1.2526996,0.007145904,0.0055455845
0.009541608,0.29028863,-1.0618012,-0.11976108,3.9646785,-1.3803191,0.008075796,-0.00058894046
0.0054708794,1.2909958,-0.66383326,-0.03252953,-0.8690417,1.367886,0.006980762,0.0035538357
0.004303284,0.5087774,-0.35952577,-0.030019758,-0.7241082,1.2448684,0.0054346174,0.0048959833
0.0033788458,0.43558037,0.05103892,-0.018707333,-0.7883432,1.2705233,0.0025270171,0.0055255275
0.001662977,0.42227185,-0.49659026,0.0019901418,-0.74957705,1.2879896,0.004390821,0.001776455
-0.0005629882,0.099768735,-0.6476941,-0.004726825,-0.7617465,1.2929341,0.0023333952,-0.004926147
0.005183734,0.5187777,-0.060239166,-0.018280206,-0.830716,1.2942929,0.0048072115,0.0065567475
0.0004059747,0.43494606,-0.8795171,0.0073561394,-0.40405798,1.1309402,0.0061887316,0.0008429792
0.0024119094,-0.07969527,-0.3213226,-0.019940434,-0.74072754,1.2626745,0.0054208487,-0.00048244186
-0.0011464879,-0.13292126,-0.76544976,-0.019077418,-0.82785213,1.2732326,-0.002429247,-0.00029641576
0.013398603,0.23493023,-1.177198,0.05180909,2.391303,-0.46114263,0.006724663,0.0034315698
-0.0005128905,0.9480422,-0.609931,-0.0009537316,-0.7071264,1.3085793,0.0025351495,0.0003484767
0.0069104657,0.6520217,-0.90880144,-0.024570895,3.8086758,-1.3291669,-0.0021672696,0.0008774679
0.0035033152,1.1193234,-0.3145138,0.017103376,-0.57049906,1.0659226,0.0054363236,0.0012594368
-0.0007640049,0.94698375,-0.6941632,-0.010048745,-0.8072903,1.3172075,0.0061632805,-0.0068704206
0.006200619,0.5681491,-0.4147003,-0.043078776,-0.7377379,1.249353,0.0067582577,0.0046221595
0.0011862293,0.7985306,-0.6388058,-0.007539866,-0.78648293,1.3322933,0.0043450147,-0.0013459045
0.004629977,0.9578135,0.0042844415,0.005922141,-0.7849529,1.2836902,0.003072288,0.002443729
0.008644506,1.2210965,-0.034902766,0.09979865,4.5091934,-1.6781442,0.008540124,0.0108796265
-0.0011441931,0.7478866,-0.55311805,-0.008414326,-0.7700497,1.3160844,0.0017281994,0.0023252945
0.009245448,1.2985196,-0.15714313,0.089641064,4.2360587,-1.564714,0.007301986,0.011089345
0.010068841,0.7555247,-1.2550799,0.0085318405,4.15644,-1.3769118,-0.0037504397,0.011689162
0.0031093433,0.7646419,-0.13212109,-0.01957178,-0.7918993,1.292059,0.007845715,0.0017831903
0.0039308444,0.64920723,-0.22048765,-0.02371171,-0.7635577,1.2232404,0.009070188,0.0045368057
0.005725004,1.2299193,-0.50489104,0.16671874,1.0872244,-1.1253971,-0.004082024,-0.004234979
0.004354961,0.1955249,-0.5480126,-0.019529281,-0.834424,1.3318888,0.0012480617,-0.0011563618
0.00020564348,0.5702271,-0.6037582,-0.005397079,-0.77723444,1.3084279,0.0062245727,0.0011060219
0.0015372112,-0.055515513,-0.23924103,-0.0105561,-0.76197577,1.2679707,0.006419562,-0.0016018469
0.00048226863,0.5108918,-0.48148486,-0.019702671,-0.8237845,1.338958,0.0033016019,0.0034407657
-6.789714e-05,-0.09039815,-0.7567158,-0.012390701,-0.58933353,1.2214736,-0.00273595,0.0076497626
0.0019041225,1.2490063,-0.22147736,-0.03159022,-0.7846348,1.2249254,0.0065352693,-0.010625841
0.005245872,0.38038307,-0.32945892,-0.01428902,-0.71269965,1.2419498,0.0059456974,-0.00028318353
0.0038380697,0.5312979,-0.18178675,-0.015873132,-0.780229,1.2849042,0.004799694,0.0043548625
0.0015625432,1.0080767,-0.46034664,-0.0060909963,-0.7809967,1.3178483,0.009097338,0.0037159007
0.0006974414,0.58959097,-0.5704354,-0.0064578033,-0.77375114,1.3013457,0.006147139,0.0011273902
0.005014308,1.196198,-0.6324463,-0.028831659,-0.7764561,1.3315625,0.0022314452,0.0049742144
0.00027061254,-0.06642568,-0.18019915,-0.00061172014,-0.7870935,1.2767667,0.007427193,-0.0026534516
-0.0016761348,0.7822103,-0.7224995,-0.015452562,-0.82692254,1.3395919,0.0037606843,-0.0035529155
0.00013256818,0.28561395,-1.0210928,0.012469681,-0.3580628,1.1073028,0.0052989684,0.0010013934
0.005036719,0.7151552,-0.6006119,-0.017505405,-0.7825892,1.285614,0.0070608035,-0.0020017046
0.007670112,0.5134305,-0.578722,-0.031323787,-0.7631966,1.2583249,0.009246796,0.002132235
0.0005445555,0.7039286,-0.39986244,-0.016748307,-0.7998481,1.3142558,0.0067047104,0.002145199
0.0034504756,0.3769619,-0.79201853,-0.052886005,2.9015048,-0.8192948,0.0017046817,-0.0027122889
-0.0005258247,0.7924492,-0.55824304,-0.0031713224,-0.78521943,1.3311846,0.0018821433,0.0013730805
-0.00034939498,-0.039088726,-0.5596919,-0.024514673,-0.81188965,1.322839,0.0027748272,-0.0021163244
0.0019997358,0.5878216,-0.7748432,-0.063237995,3.0720954,-0.8636371,0.003330581,-0.0027975682
0.004107423,0.193435,-0.06887326,0.004442396,-0.8331753,1.2921468,0.006674234,-0.00057345815
0.0031812266,-0.040975362,-0.18323466,-0.018332599,-0.7465631,1.2650203,0.0061884373,-0.00043261237
-0.0012025759,0.7160229,-0.72448826,-0.00093120104,-0.7981682,1.353418,0.002995249,0.00050975196
0.00022352487,0.31971276,0.016929239,-0.007654784,-0.7284056,1.248675,0.0093394965,-0.0031045098
0.0016950741,0.30979037,-0.97610617,0.004811766,-0.7549032,1.3344632,0.004720539,0.0022952836
-0.0005818531,0.36858773,-1.0235025,-0.017352698,-0.78092587,1.2937375,0.0051712543,0.0037223976
0.0029178932,-0.20598198,-0.66873455,-0.008953689,-0.82425606,1.2875711,0.004939899,-0.0023696441
-0.00013371557,0.5749351,-0.509712,-0.010328827,-0.7784759,1.3157055,0.0050734766,0.002789257
0.0013912991,0.60181713,-0.9539645,-0.013147114,-0.7436992,1.2931613,0.0057566166,0.0031152945
-0.00066750497,-0.0961148,-0.72944975,-0.00807607,-0.81513965,1.2704008,0.00025984645,-0.002519073
0.0047222897,0.46309257,-1.479144,0.012607815,1.9084579,-0.20987406,-0.009737745,-0.0036518704
0.0013534501,0.032431886,-0.35556805,-0.0069721914,-0.7772502,1.2774904,0.0048591346,-0.004212858
0.0026118234,0.22934015,-0.52635247,-0.012873648,-0.76798356,1.2578673,0.0047778487,-3.2367185e-05
0.0027148202,-0.10881038,-0.10490003,-0.016882418,-0.75629807,1.2715725,0.0072897673,0.00051480345
-0.0031898543,0.8244499,-0.7445986,-0.029057859,-0.85692465,1.3050627,0.006467968,-0.0037080068
0.001956202,0.07537705,-0.5577349,-0.015323577,-0.7786945,1.2948688,0.0026348606,-0.0044046063
0.0040838197,0.25052905,-0.41941562,-0.01953709,-0.74628377,1.2548798,0.0062069595,-0.0022063274
0.0011397675,1.0575482,-0.6905582,-0.018143771,-0.78920877,1.3166903,0.009409212,-0.005589964
0.0010093078,1.387804,-0.2680515,-0.04453474,-1.0434325,1.3654679,-0.0054335296,-0.016312616
0.0009949878,0.26988816,-0.5991035,-0.0032056547,-0.76111186,1.2683007,0.0029266924,0.0007079821
0.0028628781,0.1861073,0.00025504827,0.002352836,-0.80435646,1.2756476,0.006447442,-0.0013347585
0.0033605173,0.85134274,-0.592332,-0.019785045,-0.7976738,1.3143531,0.005954221,-0.0038375873
-0.0003606826,0.8642643,-0.47902742,-0.031104444,-0.607079,1.112416,0.007163912,0.002631938
0.0033785328,-0.058124468,-1.5252385,-0.03979307,-0.5652561,1.2362751,-0.014538106,-0.013181163
0.009084396,0.10446073,-0.96894825,-0.11567232,3.6887372,-1.441409,0.0066345707,-0.00181395
0.0027622655,0.28741568,-0.63689816,-0.017358063,-0.7598077,1.2510316,0.002805233,0.0028180461
0.0060352758,0.7439725,-0.5330816,-0.019301413,-0.77322316,1.2713393,0.0077695996,-0.0025208015
0.0035371855,0.36618918,-0.14441577,-0.009448765,-0.7392893,1.243795,0.005468607,-0.003629567
0.003949888,0.61644363,-0.16796294,-0.016080437,-0.8124858,1.2982107,0.006680414,0.0037990194
-0.0017113537,0.84796876,-0.55589485,-0.013718216,-0.52417517,1.0774034,0.006068941,0.0028643738
-0.00036463886,1.0240955,-0.4471175,0.017778458,-0.61810064,1.1893784,0.0013177171,-0.00015653856
0.0025220588,0.6575917,-0.1948621,-0.014873622,-0.78662586,1.2937067,0.0061058626,0.0021632295
3.0227005e-05,0.74877733,-0.70883954,-0.018779753,-0.825171,1.329902,0.004105121,-0.0020743925
0.0048970357,1.1057017,-0.78492904,-0.015794335,-0.8137076,1.3479081,-0.003569357,0.0017957371
-0.0031166002,0.2131842,-0.886572,-0.016650377,-0.8501446,1.3309222,0.004369974,0.0008770805
-0.0019232593,1.2245537,-0.6341903,-0.007203338,-0.2529098,1.0022277,0.0030043349,0.0004688222
-0.0031339452,0.36608392,-0.8306377,-0.013747869,-0.82292366,1.3249179,0.0049529746,0.00055578165
-0.0039808974,-0.06919578,-0.88227654,0.0019857907,-0.81030214,1.3354241,0.00095733255,-0.004341604
0.0021703914,0.13037549,-0.014624089,0.0038974308,-0.79296994,1.2688755,0.007885762,-0.0032028276
0.0035860613,1.3356484,-0.83064365,-0.021802781,-0.909642,1.3807856,0.010181025,-0.0023158807
0.0031166747,0.12631123,-0.089181095,-0.009561298,-0.7514374,1.2527872,0.006818861,-0.0023444314
0.0072671846,0.6170493,-0.33816817,-0.055063482,-0.73663807,1.2475383,0.006723553,0.006160794
0.0006399825,0.649419,-0.8393673,-0.017410515,-0.8157048,1.3159655,0.004232865,0.001422761
0.004423119,1.1325198,-0.48826307,-0.024116872,-0.7559421,1.2972614,0.020610303,0.0042926054
7.433444e-05,-0.066499084,-0.72379553,-0.0066263652,-0.8086209,1.2772363,0.0019160956,-0.0026784558
0.015041351,1.1950026,-0.33425337,-0.032304283,4.772052,-1.7633548,0.00041959807,0.011128558
-0.0042429417,-0.026828215,-0.2621665,-0.014434425,-0.7623627,1.2198795,0.015094541,-0.002656946
-0.0050003454,-0.15828915,-0.83668184,-0.0006442643,-0.83648765,1.325859,-0.001447022,-0.0040150005
0.0041974857,0.5938854,-0.15397006,-0.017240582,-0.79057825,1.2882501,0.005998403,0.0040209573
-0.001620613,1.1042565,-1.0859696,-0.031973626,-0.95047307,1.387462,0.008151427,-0.004940303
0.0015077069,0.46604085,-0.2778251,-0.01240146,-0.7307584,1.2624732,0.0051564574,0.001604138
0.008080788,0.5712361,0.020751566,-0.02644807,-0.75778747,1.2560521,0.0062484667,0.0059534293
0.0050644353,1.3431524,-0.6096028,-0.030191598,-0.9741976,1.3882557,0.0049629547,0.0005053263
0.0006989315,0.33207756,-0.9850031,-0.010378657,-0.7883693,1.3190247,0.0045378506,0.0064585786
0.0052390173,0.7305854,-0.55858576,-0.016925571,-0.7745292,1.2789844,0.0073277503,-0.0022234935
-0.004521575,0.4471321,-0.1594744,-0.019132225,-0.77170587,1.1576618,0.0027881414,-0.0018163119
0.0008026436,0.33702886,-0.6161792,-0.004371164,-0.75413215,1.2666489,0.0035305321,0.0007255953
-0.0018680319,1.2545891,-0.07613471,-0.03852832,-0.82716584,1.2875241,0.0044692233,0.0027668905
0.0011439994,0.3272521,-1.0715675,-0.01976156,-0.6640359,1.2132609,0.009455297,-0.0060196836
-0.0010547563,0.83820474,-0.66586006,-0.015801964,-0.8250997,1.3412008,0.0046441443,-0.005878838
-0.0038798973,-0.01822795,-0.79990995,-0.012900112,-0.8397243,1.2937634,-0.002956286,-2.3486093e-05
0.003188081,1.0026822,-0.8757708,0.0041191005,-0.8408108,1.3323108,-0.0048310123,-0.010488691
0.010157593,0.97273695,-0.74686205,-0.016475646,3.7504425,-1.2800133,0.0028956942,0.000465272
-0.0015122518,1.2634662,-0.9799769,-0.030756949,-0.9533639,1.3915763,0.0056642033,-0.0037550349
-0.0024219379,1.1288165,-0.03072846,-0.013735412,-0.69958174,1.2265259,0.010310195,-6.216951e-05
0.001220353,0.25686377,-0.49605423,0.00039541954,-0.7555326,1.2706388,0.005608842,-0.003154369
0.0038302615,0.59896076,-0.24705288,-0.0282346,-0.7429482,1.2596332,0.009745851,0.0044618826
0.0036202148,0.48987198,-0.3008919,-0.018298266,-0.7086997,1.2469616,0.0073978454,0.0033275466
-0.0017737001,0.4443363,-1.1405996,0.012611272,-0.39719924,1.1268976,-0.0007725395,0.0038545262
0.0030500963,0.0969612,-0.3488215,-0.013276814,-0.74596405,1.2586578,0.0042212456,-0.0036945362
0.0002888292,-0.006606847,-0.9480505,0.020203533,-0.46509388,1.1455263,0.0025843382,0.003247274
0.0038628653,0.5153164,-0.114566654,-0.019088505,-0.7378242,1.2559611,0.005636707,0.0020630937
0.004300609,-0.13122965,-1.1497436,0.015273722,-0.51873744,1.2450575,-0.0007379055,0.004966868
0.0022683218,-0.036084875,-0.71648884,-0.011759935,-0.7495116,1.2946942,0.0023208186,-0.0023465473
0.0018689707,0.51875746,-0.27389976,-0.011680959,-0.76561034,1.2867068,0.003997363,0.003241716
0.003790088,0.7775836,-0.59294665,-0.013877271,-0.77951,1.3017058,0.006130554,-0.0022346694
0.0015656129,1.2568396,-0.19075601,-0.027057407,-0.5531149,1.08243,0.0056017116,-4.665926e-06
0.0028981343,1.2818377,-0.017157003,-0.036481526,-0.8996457,1.3287302,0.0050448887,0.00029126368
-0.011128794,1.4101753,-0.28980094,-0.00063982373,3.746897e-05,0.730356,-0.0020522028,-0.015527045
-0.0038778037,0.5963501,-0.17261128,-0.037807252,-0.79183304,1.1643814,0.0017337799,-0.0027088877
-0.0006664023,0.016378582,-0.48799643,-0.015666066,-0.84199154,1.3316263,0.0026814789,-0.0012699235
0.0023477748,1.0581408,-0.707904,-0.01819664,-0.85316384,1.340081,0.0036534704,-0.007449629
0.0014242604,0.17256074,-0.51738155,-0.0030368543,-0.76405084,1.2685643,0.005751416,-0.0046418924
-0.002101712,0.29720217,-0.7591649,-0.00068002706,-0.7706448,1.3007501,0.0036493838,-0.0025553424
0.005574532,0.49966168,-0.035598725,-0.023280023,-0.7325231,1.2431163,0.0066500604,0.0026321989
0.0057853535,0.38023263,-0.28877458,-0.013556121,-0.714622,1.2395097,0.005800098,-0.0011271853
-0.0032711253,0.20380074,-0.8175688,0.0011546039,-0.78396773,1.318019,0.0033970661,-0.0042979736
0.0029741898,0.5601294,-1.2616795,-0.025051622,-0.9143404,1.3596632,0.0096812695,0.0014350098
0.0036662295,1.0999739,-0.77586806,-0.020585297,-0.7929499,1.3466351,-0.0034344867,0.0021240395
0.0025390983,1.0709562,-0.1150305,-0.009755967,-0.78745794,1.1684021,0.004744768,-0.010695888
0.0052763894,0.66840786,-0.1630939,-0.030739067,-0.7384001,1.258366,0.010290265,0.0052452665
0.0036324933,0.36325276,-0.69136363,-0.035892602,-0.79283893,1.2625641,0.0080014765,0.003231166
0.011048906,1.1097188,-0.26453182,0.07051352,3.1804442,-1.1446819,0.008365206,-0.001714332
0.0032604411,0.550769,-0.33659604,-0.031247614,-0.7414367,1.2616293,0.006407991,0.0045623165
0.005386837,0.46117496,-0.054471135,-0.021844028,-0.7830843,1.2714705,0.0060315654,0.0060634296
0.0055313334,0.8968933,0.0144201815,0.015611799,-0.83067393,1.2513152,0.004160933,-0.006057726
-0.004159622,-0.028327778,-0.9628066,0.002336862,-0.826115,1.3478278,0.00027807057,-0.0023378152
0.0023611262,0.09058359,-0.032907188,0.008551301,-0.8182776,1.2845275,0.0066390634,-0.0023199935
0.005447164,1.3101674,-0.37974194,-0.027097194,-0.7725762,1.2452888,0.0024993569,-0.0019640196
-0.00073540956,0.38346675,-1.2407156,0.0026445412,-0.8757175,1.3673978,-0.006220896,0.0033987667
0.009328254,1.3741486,-0.36285165,0.118172824,3.166646,-1.1066724,0.004376624,0.007589964
0.0046171024,0.68701875,-0.35065368,-0.035857793,-0.7642667,1.2748741,0.0071926117,0.0038601737
0.0021844283,0.51739347,-0.89220953,-0.0024225092,-0.7855313,1.3355128,0.0040855557,0.006299047
-0.00015806407,0.19817965,-0.6582757,-0.0020054555,-0.7705262,1.2846835,0.0031863227,-0.0011514146
-0.0010304376,-0.07639851,-0.30238962,-0.007823436,-0.8076674,1.324637,0.010467336,0.0005628448
0.0011214092,-0.0067814887,-0.44562352,-0.016151307,-0.7872993,1.2953482,0.0040951744,-0.0032076556
-0.005025737,-0.26176995,-0.87985396,0.0048182034,-0.8587475,1.3374058,-0.003808327,-0.0018425006
0.0034312084,0.004945323,-0.30448553,-0.02155566,-0.73191583,1.256343,0.00491783,-0.0010247249
0.0018935874,0.11913194,-0.70478666,-0.015697,-0.7840637,1.252329,0.0018292218,0.00079822354
0.0010297969,0.9689433,-0.54877484,-0.009275077,-0.7922363,1.3313156,0.006193839,-0.004533978
-0.001215227,0.5734589,-1.097152,-0.013629613,-0.7199482,1.3056091,0.002265405,0.0057717096
-0.00040703267,0.891266,-0.43872193,-0.011966286,-0.7534107,1.3021612,0.00018751621,0.0028309654
0.00255204,0.117500484,-0.45293292,-0.010617433,-0.7592088,1.2682914,0.0031609014,-0.00531614
0.0061313584,0.66074383,-0.59962,-0.019875644,-0.7811446,1.269269,0.007977188,-0.0019653458
0.00453455,0.88594097,-0.10536286,-0.024947045,-0.7756684,1.2764708,0.0094143525,0.0038463753
0.0048195794,0.585046,-0.310025,-0.043650504,-0.73851097,1.2545272,0.006715268,0.0052840095
-0.0018626973,0.32761213,-0.78310525,0.002660396,-0.7853651,1.3218967,0.003937565,-0.0028949697
0.0014911368,0.54917276,-0.6519458,-0.006530521,-0.768574,1.2943394,0.0063884705,-1.3383105e-05
0.0015789941,0.25711673,-1.0715384,-0.021445809,-0.63873076,1.2175815,0.0072175227,-0.002971353
0.003061004,0.5905503,-0.42212644,-0.021839498,-0.7588856,1.2751596,0.006716594,0.00316119
0.0009815767,1.0647439,-0.47455722,0.019576432,-0.62244093,1.2045382,0.0017654747,0.00023935549
0.0011554435,0.22114067,-0.93395066,0.008208277,-0.5348058,1.2164291,0.005062662,-0.0026095826
0.00050968677,0.5123134,-0.62494123,-0.009634731,-0.75668275,1.2937336,0.004830107,0.0019898694
0.006853707,0.7262544,-0.051723868,-0.031661864,-0.70974195,1.2434168,0.008921742,0.0056768637
0.0016682819,0.45992994,-0.24316987,-0.010773895,-0.75932884,1.2753104,0.0040304363,0.0011263471
-0.003299646,0.44310492,0.05512002,-0.014584897,-0.6822536,1.241802,0.012757018,-0.0011730809
0.002290167,1.2906374,-0.5457175,-0.039786752,-0.9213029,1.3819716,0.0014565103,0.0023832899
0.0027359799,-0.007946402,-0.2966033,-0.017444966,-0.7420695,1.2597786,0.0052945614,-0.0014354009
0.0018692985,-0.060753077,-0.58268225,-0.018991468,-0.76230264,1.292419,0.0031823888,-0.0019673724
0.005217202,0.6400762,-0.09859297,-0.025532363,-0.7156745,1.2477491,0.0074493885,0.0039644223
0.001479514,0.32838416,-0.9703487,-0.0036677099,-0.7835593,1.3312675,0.0043282732,0.0065268558
-0.0017648861,0.087129995,-0.73432577,-0.0019361353,-0.7688494,1.3076571,0.0024790391,-0.0049274582
-0.002121143,0.9900153,-0.6300348,-0.010716436,-0.8234942,1.3283775,0.0060057677,-0.007727625
0.008627124,0.5632524,-0.56139517,-0.0414772,-0.7515689,1.2416239,0.00964728,-0.00019753166
0.00018448383,0.55251783,-0.49381396,-0.006898103,-0.7740668,1.3055485,0.0060532466,0.0026058536
-0.003226094,-0.12425919,-0.79730964,-0.0029515005,-0.81910074,1.3007526,-2.6531518e-05,-0.0045037884
0.0011272058,-0.075210184,-1.362416,0.0074175023,-0.83864236,1.3609651,0.008114912,0.006018771
-0.0004446134,-0.043211967,-0.71370184,-0.01663032,-0.6055753,1.1907507,-0.0024694502,0.006870063
0.0031433776,0.22055094,-0.4919918,-0.014276026,-0.76894546,1.2605051,0.0064391494,-0.0010712761
0.006463833,0.6272192,-0.2676799,-0.054923173,-0.7356684,1.2470309,0.0076622665,0.0059725624
0.0017788485,0.00881879,0.03379664,-0.005750892,-0.76777637,1.2605225,0.008965269,-0.0006833691
0.0052245334,0.49955392,-0.58521503,-0.02294719,-0.7579075,1.2611285,0.008044571,0.0023102146
-0.0005353913,0.8384018,-1.0752729,-0.031081555,-0.8913547,1.3559239,0.0010113791,0.0026461165
0.0029156283,0.471444,-0.17656949,-0.015477477,-0.75256085,1.2661972,0.004825346,0.0022055786
-0.00016824156,1.0419551,-0.60952175,0.008394184,-0.68667483,1.2969115,0.0062065423,-0.005840184
-0.0007613227,0.5611472,-0.6213186,-0.010219274,-0.76366365,1.3080951,0.0044158287,0.0020038616
0.001652129,0.5928093,-1.233153,-0.028173624,-0.917433,1.3597481,0.011112593,0.0007962268
-0.0023237988,0.15974893,-0.9410206,0.006599488,-0.79909587,1.3421572,0.0039505847,-0.0030017067
0.0011438802,0.5323984,-0.08731231,-0.01760268,-0.67176306,1.2306975,0.010433152,-0.0005071778
0.0024957135,1.3412433,-0.015366614,-0.03270879,-0.83903337,1.307947,0.007982567,-0.0010717604
0.0038587674,1.2981501,-0.31024337,-0.022664575,-0.7595217,1.2281692,0.00547418,-0.0072205234
0.00025755912,1.150713,-0.73135555,-0.027738152,-0.8833804,1.3885058,-0.0057817735,0.0020198803
0.009931274,1.2686521,-0.18904765,0.00628263,4.676781,-1.7376077,0.002497837,0.013422903
0.004276164,0.49191082,-0.59050816,-0.029860733,-0.75641596,1.2580541,0.0074830055,0.004664419
0.004655488,1.3845315,-0.7414552,-0.03628051,-0.88087714,1.3791624,0.013826344,0.0012235623
0.0014236644,0.06477748,0.0010408759,0.0081957,-0.80395997,1.2768635,0.006432891,-0.0027880687
0.0010606423,1.2276229,-0.85027385,-0.011280654,-0.93348014,1.3793722,0.0021780543,-0.002372982
0.00383576,0.40211874,-1.0381668,0.0013577365,-0.58617306,1.2728688,0.0044805296,0.00433938
0.0038675964,0.8077311,-0.5385922,-0.11282654,3.2088723,-0.93858004,0.005531043,-0.0043635108
0.0022607371,1.0402154,-0.86369896,-0.028235106,-0.8768022,1.3634006,-0.0062363595,0.0022176933
0.002235897,1.028009,-0.1648879,0.012584092,-0.8051317,1.296337,0.0071241967,0.0047482233
0.0027745888,1.2341828,-0.3901239,0.0023584687,3.618034,-1.2232084,-0.0054361075,0.0027804915
0.0058588088,-0.42947757,-1.2314138,0.00818673,-0.41002694,1.2754887,-0.008854568,0.009604173
0.004529603,1.0965674,-0.3530357,-0.0045961714,-0.77630806,1.2963926,0.004954148,0.0068149846
0.0017107204,-0.124861434,-0.25579163,-0.016814707,-0.75102305,1.2667521,0.0064886734,3.5611913e-05
0.0005649403,0.64903164,-0.7198622,-0.005365131,-0.7981812,1.330209,0.0043172166,0.00051232986
0.0036270693,0.6282728,-0.5604441,-0.013133762,-0.7680712,1.277892,0.007255897,-0.0007511992
-0.001794152,0.28367895,-0.9258424,-0.009928582,-0.8206248,1.3366274,0.005713515,0.0014325362
0.0058672503,0.73822755,-0.04141465,-0.028151272,-0.73801637,1.258715,0.008065902,0.0042136293
-0.0021246895,0.19443865,-0.95154786,0.0025033378,-0.8091105,1.3434839,0.004535638,-0.0013677794
0.00014478713,0.69085246,-0.7352607,-0.0080710035,-0.80993474,1.345034,0.0036713853,0.0006809812
0.0012815669,0.45883667,-0.6641862,-0.018403528,-0.77181756,1.2749363,0.008777365,0.00038128905
0.002294071,-0.1379628,-0.20469573,-0.020563124,-0.74403596,1.2649583,0.0068134815,0.0010851603
0.0024234727,0.20724215,-0.53626144,-0.011796353,-0.77131486,1.2593945,0.004965931,-0.0006527323
0.0018434003,0.44746822,-0.63223404,-0.016388414,-0.76472867,1.265622,0.007548496,0.0011843424
0.0007927492,-0.22242816,-0.5495995,-0.02628219,-0.83162105,1.3136305,0.0060097724,-0.0010247249
0.0029502586,0.9808849,-0.37749955,-0.01282203,-0.7894877,1.3098625,0.0056111626,0.001289336
-0.0045882985,1.1869162,-0.08990502,-0.027389584,-0.7705927,1.2542394,0.0065884218,0.0017907154
0.003848739,0.6444249,-0.431609,-0.024549602,-0.76212394,1.273453,0.006965503,0.0022607427
0.0006490424,0.87540394,-0.5606911,-0.004707215,-0.79403543,1.3401862,0.0032963268,9.795837e-05
0.00028527528,-0.052928343,-0.35128364,-0.010884462,-0.79937005,1.2982515,0.0055117607,-0.002769472
0.00556577,0.35887557,-0.31061438,-0.01461458,-0.71377635,1.2393475,0.0057382137,-0.0012617726
0.0039291456,0.07062979,-0.6822717,-0.02941501,-0.78776956,1.2427777,0.0012166798,0.0030068737
0.0017851368,0.39129025,-0.8129399,0.0055918717,-0.55547345,1.2061968,0.004181836,-0.00067377277
0.0042863265,0.7336069,-0.114620954,-0.0180549,-0.81533194,1.2982913,0.007782683,0.0026678722
0.0027794912,0.30368477,-0.4994889,-0.012622831,-0.7569432,1.2561768,0.0042780787,0.0014544707
0.0038486794,1.3505672,-0.5814539,-0.029604552,-1.0069898,1.3955356,0.003232874,-0.0002340097
0.00054944307,0.39762312,-0.58214223,0.0021290206,-0.75247645,1.2835336,0.0039614365,0.0005538743
0.0003677681,0.5882207,-0.52450585,-0.008386908,-0.7840997,1.3096308,0.0071390644,0.0016245823
0.0017919317,1.2088463,-0.49680722,-0.027040182,-0.789183,1.3164655,0.010323398,-0.0026526172
-0.0013907179,1.1602974,-0.042881876,-0.0077022887,-0.6309358,1.1593177,0.009463221,-0.00069277175
-0.0038241968,-0.0033432841,-0.9694468,-0.00039344793,-0.81551504,1.3522636,0.0017700121,-0.0038124938
0.00493595,0.4229498,-0.9607531,0.006283643,0.45196846,0.5678979,-0.00018507242,-0.0024515036
0.0005013272,0.74831456,-0.92812943,-0.0030386127,-0.54475427,1.2556585,0.0031875074,0.0012498405
0.005789824,0.68394893,-0.12728265,-0.03262436,-0.7294631,1.2513683,0.010634169,0.0051678997
0.0038206056,0.27900034,-0.2260147,-0.006006954,-0.75127375,1.2504653,0.004548326,-0.005742671
0.0021747574,0.73656195,-0.9110074,-0.012755273,-0.6221665,1.2868935,0.0047040544,0.0012435596
0.0016116723,0.2664098,-0.5728005,-0.018970547,-0.7250961,1.1975337,0.0038903132,0.0040032472
0.0019351915,0.97555125,-0.535324,-0.0065991855,-0.77367747,1.332802,0.0041353256,-0.0010505039
0.0028396323,0.56903905,-0.3987281,-0.021176456,-0.7558429,1.27552,0.006377682,0.0038937908
0.001296036,1.14565,-0.0859573,-0.008982418,-0.73106825,1.1490821,0.006996937,-0.011144819
0.0030520037,-0.061418235,-0.3411974,-0.024103044,-0.73243403,1.259652,0.004980296,-0.00022089668
0.008204736,-0.72323865,-1.5783223,-0.0461207,4.2975607,-1.7347367,-0.008778527,-0.0025781635
0.0009141639,0.2073532,-0.6770861,-0.009100316,-0.7722262,1.2629435,0.0025910437,0.00021144561
0.003735669,0.92202485,-0.2996037,-0.017870544,-0.78361344,1.2948273,0.005375996,0.0009646695
0.0017725304,0.96895057,-0.47615898,-0.008430956,-0.7932354,1.3274913,0.0049410164,0.0011155885
0.0038316324,0.7294244,-0.11380383,-0.02014464,-0.7777525,1.2846746,0.007365726,0.0023521464
0.0024595931,0.093976036,-0.03444892,0.00915158,-0.82075655,1.285902,0.00637462,-0.002289625
0.004255004,0.82542706,-0.44964042,-0.015863536,-0.7804024,1.2903641,0.0062036216,-0.0008270461
0.00017825514,0.92645305,-0.44802618,-0.006968913,-0.783409,1.325613,0.00035526976,0.0016735028
0.002031453,0.036812678,-0.0050322115,-0.006211815,-0.7650684,1.2594022,0.008370794,-0.0012387652
0.0070057586,0.60871553,-0.52453756,-0.03378808,-0.7566439,1.2528108,0.008737281,-8.851476e-05
0.007392384,1.0364605,-0.19315524,0.06545302,2.8182447,-0.9765756,0.0043872707,-0.0041689295
-0.0013517141,1.1384473,-0.9313886,-0.038092922,-0.95658183,1.382527,-0.0030977763,0.00029855035
-0.0018710159,1.0896634,-0.66513205,0.022793742,-0.09740794,0.95920146,0.009394683,-0.007506041
0.0034780577,0.601483,-0.33590063,-0.030070303,-0.76164424,1.27884,0.007030338,0.004869936
0.00021789223,0.7948949,-0.36098343,-0.019588469,-0.8051914,1.3251919,0.003389664,0.0026772302
9.060651e-05,1.0161598,-0.1067847,-0.0048125363,-0.8505595,1.3036604,0.0043259338,0.0103045385
0.006882377,0.7048969,-0.020706266,-0.032262202,-0.6926428,1.2303368,0.009149209,0.0045912247
0.0043901876,0.63587457,-0.12865517,-0.018777547,-0.7817254,1.2843403,0.006438561,0.0036282223
0.0022054985,0.7939903,-0.6389984,-0.012810348,-0.7937317,1.3264225,0.004833229,-0.0013944227
0.0033112243,0.5760617,-0.2626209,-0.020924447,-0.735309,1.2641897,0.007847622,0.004275022
0.0036522523,0.54284525,-1.0618038,-0.0075063086,-0.6329794,1.2167112,0.011809774,-0.0050145704
0.004609771,0.3244145,-0.5130162,-0.024376987,-0.7507372,1.2471062,0.0031083822,0.0048804265
0.002532132,0.4581738,-0.3375329,-0.011659382,-0.71649754,1.2546088,0.006089434,0.0018999558
0.0041030124,1.3468044,-0.69302785,-0.018965302,-0.9625572,1.3843555,0.007236548,0.00067651086
0.0028630123,0.07501215,-0.65878725,-0.18253775,3.4913263,-1.2694099,0.01153893,-0.006324148
0.0026616529,-0.019027576,-0.48737296,-0.016121266,-0.7746599,1.2786065,0.004637435,-0.0033254046
0.0007465258,0.5848313,-0.34090006,-0.016632674,-0.80974615,1.3182682,0.004511684,0.002764253
-0.00062122196,0.49737072,-0.684881,0.0012236261,-0.79008484,1.331604,0.0047823973,-5.719252e-05
0.00872118,0.5190537,-0.52394533,-0.03752422,-0.74758637,1.2493787,0.007515788,0.0046389084
0.0026581362,0.018333793,-0.71507883,-0.02886462,-0.7966764,1.2467169,0.00031749904,0.0018831473
0.007514246,0.67606765,0.051121265,-0.023950992,-0.7485777,1.254143,0.0034517571,0.004214434
0.0060123876,0.3050902,-0.21077716,-0.012114732,-0.8501543,1.313937,0.0043995865,0.0031031948
-0.00059276074,0.073789924,-0.76626587,-0.0120772105,-0.79372954,1.269671,0.0010974556,-0.0013093669
0.003526993,0.44115645,-0.5991315,-0.023058174,-0.75208664,1.255216,0.0056300014,0.0039592963
0.0010821596,0.76498145,-0.42293936,-0.02515906,-0.7620361,1.2890083,0.0051878095,0.0046149623
0.0009210482,0.030022398,-0.40849784,-0.0116690975,-0.7956289,1.2961785,0.004386794,-0.0040229578
-0.0041824244,0.33803314,-0.17370906,-0.023630781,-0.7738681,1.1792418,0.0035011247,-0.0013699029
0.0014606193,0.8306967,-0.5997797,-0.007388828,-0.78708076,1.3301352,0.004260607,-0.0011689384
0.0039009526,0.5877035,-0.22529635,-0.027355311,-0.72866654,1.2521249,0.010357201,0.0037124734
-0.0018157288,1.0697486,-0.17903376,0.00039685005,-0.76960826,1.243907,0.00039403886,0.0068002027
0.00200779,0.73783433,-0.5794214,-0.008400856,-0.7819705,1.3105484,0.005229771,-0.0003945846
0.0054974034,0.7634392,-0.004897654,-0.015296338,-0.78943646,1.2777745,0.0034542903,0.0017793756
0.0031153038,0.24113302,-0.22610739,-0.0029196716,-0.7614691,1.2559663,0.0048948526,-0.005871894
0.00044573098,-0.03573048,-0.17017567,0.00015783543,-0.7869265,1.2752488,0.0073575675,-0.0030156393
-0.00017657131,0.3339314,-0.6975409,0.0034783506,-0.77530026,1.3198007,0.0031411014,-0.0019224305
0.0074395165,-0.3065923,-1.5011034,-0.007328329,4.488301,-1.620205,-0.01122766,-0.006193908
-0.00067102164,0.5093097,-0.7761947,-0.0052115894,-0.8023623,1.3254945,0.004614681,0.0011517685
0.0006950274,0.75759745,0.020075023,0.03205845,-0.7946595,1.160834,0.0007381886,-0.00549856
-0.00020938367,0.52475405,-0.6011727,-0.002500174,-0.773937,1.30988,0.0057815313,0.0015964191
0.0053564385,0.85365385,-0.3926877,-0.021000026,-0.7783011,1.2804631,0.006677054,-0.00072890706
0.0030929893,1.3232956,-0.11611585,0.044147376,2.3816519,-0.63794136,0.0037388913,0.0022809748
-0.0025098845,1.27828,-1.0405464,-0.029100774,-0.96686625,1.3986646,0.008295849,-0.006616922
0.0022146776,-0.0956177,-0.68586564,-0.010321973,-0.8102181,1.2701031,0.0030139089,-0.0016399045
0.0020253137,0.66666067,-0.70942307,-0.013052462,-0.8071219,1.3233348,0.004952006,0.00018983893
-0.00605233,-0.0108796805,-0.031777173,-0.0031853593,-0.8019322,1.2669641,0.0090467855,-0.00637074
-0.002971284,0.15282866,-0.92189,-0.013934491,-0.8608935,1.3435267,0.004198283,0.0013065916
0.0012263134,-0.26928318,-0.69572675,-0.008890985,-0.8359411,1.2945862,0.003428042,-0.0030093808
0.0028862432,0.49417436,-0.9083555,0.0035667443,-0.77929616,1.3412067,0.004011236,0.005729405
0.00034738332,-0.009670138,-1.3277384,-0.010369299,-0.7875545,1.3023475,0.008718222,0.0034075808
0.0050256327,0.055792436,-1.1202347,0.033112977,-0.3014165,1.0904771,0.008036949,0.0048618894
0.0013758019,0.34373528,-0.5205338,0.0024631643,-0.7565657,1.2926296,0.003090009,-0.0010052938
0.0025912821,0.79186386,-0.22963,-0.018161653,1.7988514,-0.36133224,0.0008789785,0.001158122
0.00014428794,0.31883535,-0.92022574,0.008596869,-0.41782174,1.1285396,0.0056916475,0.00038064085
0.0067385435,-0.44062197,-1.1019647,-0.00031530624,-0.48942295,1.344741,-0.011556555,0.009626498
0.0052329972,0.85435784,0.064046115,0.011882486,-0.82248974,1.2944709,0.0021322407,-0.00088170357
0.0011872724,1.2810254,-0.89960706,-0.011478005,-0.91234565,1.381154,0.0068417676,-0.004332425
0.003436081,1.1287055,-0.24863736,-0.006446508,1.6078717,-0.20809066,-0.0043958426,0.003934143
0.004126616,0.552854,-0.16184738,-0.017055212,-0.77608585,1.2823268,0.0051082447,0.0042861383
0.0035591796,0.56369495,-0.3315064,-0.032792445,-0.74462223,1.2640399,0.0065047294,0.0048539024
0.002557166,0.63366073,-0.7153268,-0.01453769,-0.8087175,1.3160065,0.0053680763,0.00035261922
0.001698561,-0.038225725,0.04252109,-0.008234678,-0.76460123,1.2608502,0.009275295,0.00030463748
0.002390869,1.0591345,-0.70812726,-0.015585838,-0.76160026,1.3132871,0.010501899,-0.0045318324
0.003696628,0.615713,-0.23339358,-0.019520877,-0.73647046,1.2679901,0.006749943,0.0047309976
0.0017232969,0.7134213,-0.33482176,-0.027877865,-0.8506738,1.3423696,0.0069713853,0.003367154
0.0019643977,0.15684171,-0.5914271,-0.012549875,-0.77907836,1.2560812,0.0035100728,-0.00041294284
0.0011499003,0.5239187,-0.67847836,-0.005326507,-0.76800025,1.296326,0.006327465,3.0873343e-05
0.0038346723,0.1579026,-0.2926953,-0.0024654842,-0.8294046,1.3037765,0.004486013,-0.0026578326
0.004152961,0.3376717,-0.5583496,-0.020239947,-0.74823654,1.2508569,0.002681002,0.0050819498
0.00035566837,-0.08412434,-0.2992007,-0.007900415,-0.78803027,1.286722,0.006200172,-0.0023773033
0.00065172464,0.551137,-0.45120698,-0.00682467,-0.77083766,1.2970183,0.0066299066,0.0027075391
0.00423003,0.70061713,-0.3312591,-0.03546917,-0.77373374,1.2828124,0.00783585,0.0037849527
0.0014489368,0.52213556,-0.4186859,-0.0096473675,-0.75443995,1.2800528,0.0057444945,0.00365722
0.003986992,0.92989117,0.031974494,0.030221375,-0.8034301,1.194928,0.0065074638,-0.010058524
0.0056258515,1.1131692,-0.49567598,-0.009029029,-0.7417705,1.3001145,0.012775056,0.0012406837
-0.0023709536,0.6513838,-0.89152634,0.0069791996,-0.31255877,1.0563293,0.0033814907,0.0035026465
-0.0013799891,0.5700815,-0.76730573,0.005482497,-0.78803897,1.3428787,0.0032443255,0.00013838522
0.0043764785,0.14344954,-0.39380994,-0.0121518355,-0.83693933,1.3194066,0.0033275,-0.0014222283
0.0011344627,1.0728612,-0.66276556,-0.019188343,-0.8370744,1.3289498,0.006133329,-0.005335422
0.0023964122,0.005207807,-0.65487754,-0.0035908795,-0.78954446,1.2906245,0.006346464,-0.003417613
0.0036540702,-0.16325976,-0.62179506,-0.011069773,-0.8164128,1.2957331,0.0074691623,-0.0021840949
0.002866052,1.1050324,-0.7106502,-0.009973226,-0.7339318,1.3220946,0.0013068728,0.0017575156
-0.001343064,0.25939697,-0.78742003,-0.0136994105,-0.7980671,1.290261,0.0040026307,-0.0003340561
0.005158432,0.22184391,-0.39521453,-0.020998714,-0.733263,1.2467123,0.0057171583,-0.002660932
0.0035407618,0.5791095,-0.17963633,-0.018528817,-0.7428603,1.2681953,0.005592525,0.003514288
0.0031527355,0.5035315,-0.19155565,-0.015115438,-0.76537323,1.2772647,0.0045223683,0.003320245
0.005077906,-0.04762213,-0.62485236,-0.01114714,-0.7993275,1.2683918,0.006350115,-0.0009579677
0.004087217,0.93504685,-0.22665015,-0.024075864,-0.77786314,1.2924157,0.0056322888,0.0029220562
-0.0011735484,0.5970256,0.007900089,-0.01458895,-0.6559379,1.2377301,0.014352486,-0.0013923664
0.0005731657,0.30814815,-0.5654074,0.0025879168,-0.7511517,1.2905681,0.003668189,-0.0012568254
0.0044853166,0.49806923,-0.41709062,-0.025333164,-0.7234129,1.2481772,0.004489541,0.0052921157
0.0027001575,0.5074549,-0.22183546,-0.017522572,-0.7085575,1.2461246,0.006602779,0.0018762331
0.0031895116,-0.120884165,0.046945184,-0.011516808,-0.77662814,1.2862226,0.009223327,-5.3049996e-05
0.00095618516,-0.02127947,-0.25823605,-0.0037214733,-0.7769295,1.2730746,0.006231807,-0.003284039
0.00072760135,0.95077634,-0.5458292,-0.01763129,-0.81144,1.3233067,0.00824289,-0.0052293856
0.0022629574,0.6377958,-0.61008644,-0.008871077,-0.7735698,1.2964991,0.0061903447,-0.00045016594
0.0028197318,1.0751247,-0.2557825,0.02109805,-0.63354325,1.0884525,0.0053400174,-0.0012814943
0.0042168275,0.43621165,0.00437817,-0.015385805,-0.8127607,1.284708,0.0018757358,0.00602719
-0.00041805953,1.4190149,-0.090694845,-0.011542974,-0.37630764,1.0308157,0.0075163394,-0.017526357
0.006034337,0.25263917,-1.214225,0.025784614,-0.019127846,0.8889692,0.00087009,0.0059201047
0.0020396188,0.8229236,-0.28694856,-0.018107174,-0.7944386,1.3034207,0.0067416504,0.0021412354
0.0068848506,0.6539475,0.037487924,-0.016988872,-0.7966212,1.2701973,2.8569251e-05,0.0041462164
-0.00022678822,1.0128824,-0.55409384,-0.0041391826,-0.79528034,1.3265966,0.008870944,-0.005411746
0.0017973259,0.59807855,-0.5891012,-0.008146999,-0.7698363,1.2923821,0.0063249543,0.00025328808
0.0039057806,0.87731284,-0.54821426,-0.015479801,-0.7779858,1.3086406,0.005812831,-0.0030211527
0.0020179823,0.58539605,-0.30885378,-0.013665555,-0.7584299,1.2837774,0.00593134,0.0037893336
0.0013542846,0.0345708,-0.36680368,-0.007801292,-0.77853537,1.27936,0.0047268197,-0.0042125005
0.0011607483,0.7807361,-0.44340146,-0.008594273,-0.7830844,1.3111368,0.004886329,0.0014041644
0.0033761933,0.12069824,-0.62065697,-0.016593276,-0.80715716,1.3226435,0.001457423,-0.0014275629
0.0034715608,0.6033386,-0.11274472,-0.025132416,-0.6746985,1.2275859,0.011160269,0.0021823626
0.0017304793,0.050071955,-0.1990445,0.0029050135,-0.81672823,1.2916628,0.0064275824,-0.0030279476
-0.0024962947,0.19696307,-0.75168705,0.00045335526,-0.77329326,1.3044978,0.0033957288,-0.0033299942
0.00446219,0.6700296,-0.43543133,-0.025480984,-0.7636224,1.2718704,0.0071349293,0.001610754
-0.0015715286,0.40119195,0.049997956,-0.019083498,-0.705426,1.2387794,0.0101612955,-0.00016415305
0.0026153997,0.1628366,-0.041606158,0.0043637776,-0.7958517,1.270227,0.0073649213,-0.0035197753
-0.0042976066,1.1393678,-1.1403646,-0.03197452,-0.96964705,1.3857818,0.0046750978,-0.006481277
0.0071361437,1.0569664,-0.8273914,-0.01953852,-0.8013158,1.3403963,0.00033487007,0.0002010148
0.003974922,0.3498013,-0.5768211,-0.020841,-0.74793744,1.2496539,0.0028609186,0.0048528295
0.0037874654,0.09555276,-0.00035342574,-0.009484408,-0.76221514,1.2648154,0.007153243,-0.0020962972
0.00372947,0.23422357,-0.06696266,-0.00025725132,-0.81418514,1.281726,0.006652333,-0.00069546886
-0.0032054111,0.19478638,-0.88351786,-0.018425105,-0.8595251,1.3318925,0.003975913,0.0013524871
-0.0029594824,0.9750185,-0.61957663,-0.015617488,-0.84891045,1.325751,0.0067210793,-0.006662639
0.0014470294,0.52185094,-0.7339119,-0.013982413,-0.8010465,1.3011612,0.0063081533,0.0013861638
0.008626558,-0.1455604,-1.3424749,0.041658107,3.710329,-1.0583336,0.012344155,0.0013298001
-0.0024178252,-0.01833807,-0.8207772,-0.0027201152,-0.7881242,1.3249935,0.0021124221,-0.004939096
-0.0008825287,1.2997785,-0.3360296,-0.035136696,-0.9349611,1.3472095,-2.1748245e-05,-0.009607973
0.001190789,0.43948865,-0.5582792,0.0023626112,-0.75038433,1.2822617,0.0042245984,0.0011980813
0.0030635074,0.68798697,-0.65216464,-0.012135146,-0.7892579,1.3053678,0.005846657,-0.0009165127
0.004065223,0.23554574,-0.464148,-0.020618437,-0.76538265,1.2559363,0.006626487,-0.00023776479
0.00040162355,0.65156037,-0.7167034,-0.0042036152,-0.7957097,1.3305739,0.0042578205,0.0004616063
0.013430357,0.15853883,-1.1977034,0.036623362,0.76948917,0.4468064,0.0017782673,0.0056002
0.0009604171,0.39451978,-0.24713054,-0.007702557,-0.77352107,1.2183022,0.0064164363,0.0038551968
0.0051676705,0.6268099,-0.3082392,-0.043293234,-0.75473595,1.2686218,0.007127732,0.0057796817
-0.0006408915,0.6010296,-0.6382822,-0.0105278175,-0.70256746,1.2579086,0.006373156,0.0026553255
0.0010669306,0.31397134,-0.5348426,0.0005976581,-0.76475334,1.298591,0.0024728253,-0.0019035954
0.0014108494,0.51902443,-0.46244028,-0.0066498495,-0.7521732,1.2769161,0.005585216,0.0028305035
0.0013591126,0.59910846,-0.35686016,-0.014320431,-0.7716018,1.2939656,0.0062655807,0.0033897143
